demos/20-look-book/resources/look_cool.cube
TITLE "look_cool"
LUT_3D_SIZE 5
0.00000 0.01000 0.03000
0.22000 0.01000 0.03000
0.44000 0.01000 0.03000
0.66000 0.01000 0.03000
0.88000 0.01000 0.03000
0.00000 0.25500 0.03000
0.22000 0.25500 0.03000
0.44000 0.25500 0.03000
0.66000 0.25500 0.03000
0.88000 0.25500 0.03000
0.00000 0.50000 0.03000
0.22000 0.50000 0.03000
0.44000 0.50000 0.03000
0.66000 0.50000 0.03000
0.88000 0.50000 0.03000
0.00000 0.74500 0.03000
0.22000 0.74500 0.03000
0.44000 0.74500 0.03000
0.66000 0.74500 0.03000
0.88000 0.74500 0.03000
0.00000 0.99000 0.03000
0.22000 0.99000 0.03000
0.44000 0.99000 0.03000
0.66000 0.99000 0.03000
0.88000 0.99000 0.03000
0.00000 0.01000 0.30000
0.22000 0.01000 0.30000
0.44000 0.01000 0.30000
0.66000 0.01000 0.30000
0.88000 0.01000 0.30000
0.00000 0.25500 0.30000
0.22000 0.25500 0.30000
0.44000 0.25500 0.30000
0.66000 0.25500 0.30000
0.88000 0.25500 0.30000
0.00000 0.50000 0.30000
0.22000 0.50000 0.30000
0.44000 0.50000 0.30000
0.66000 0.50000 0.30000
0.88000 0.50000 0.30000
0.00000 0.74500 0.30000
0.22000 0.74500 0.30000
0.44000 0.74500 0.30000
0.66000 0.74500 0.30000
0.88000 0.74500 0.30000
0.00000 0.99000 0.30000
0.22000 0.99000 0.30000
0.44000 0.99000 0.30000
0.66000 0.99000 0.30000
0.88000 0.99000 0.30000
0.00000 0.01000 0.57000
0.22000 0.01000 0.57000
0.44000 0.01000 0.57000
0.66000 0.01000 0.57000
0.88000 0.01000 0.57000
0.00000 0.25500 0.57000
0.22000 0.25500 0.57000
0.44000 0.25500 0.57000
0.66000 0.25500 0.57000
0.88000 0.25500 0.57000
0.00000 0.50000 0.57000
0.22000 0.50000 0.57000
0.44000 0.50000 0.57000
0.66000 0.50000 0.57000
0.88000 0.50000 0.57000
0.00000 0.74500 0.57000
0.22000 0.74500 0.57000
0.44000 0.74500 0.57000
0.66000 0.74500 0.57000
0.88000 0.74500 0.57000
0.00000 0.99000 0.57000
0.22000 0.99000 0.57000
0.44000 0.99000 0.57000
0.66000 0.99000 0.57000
0.88000 0.99000 0.57000
0.00000 0.01000 0.84000
0.22000 0.01000 0.84000
0.44000 0.01000 0.84000
0.66000 0.01000 0.84000
0.88000 0.01000 0.84000
0.00000 0.25500 0.84000
0.22000 0.25500 0.84000
0.44000 0.25500 0.84000
0.66000 0.25500 0.84000
0.88000 0.25500 0.84000
0.00000 0.50000 0.84000
0.22000 0.50000 0.84000
0.44000 0.50000 0.84000
0.66000 0.50000 0.84000
0.88000 0.50000 0.84000
0.00000 0.74500 0.84000
0.22000 0.74500 0.84000
0.44000 0.74500 0.84000
0.66000 0.74500 0.84000
0.88000 0.74500 0.84000
0.00000 0.99000 0.84000
0.22000 0.99000 0.84000
0.44000 0.99000 0.84000
0.66000 0.99000 0.84000
0.88000 0.99000 0.84000
0.00000 0.01000 1.00000
0.22000 0.01000 1.00000
0.44000 0.01000 1.00000
0.66000 0.01000 1.00000
0.88000 0.01000 1.00000
0.00000 0.25500 1.00000
0.22000 0.25500 1.00000
0.44000 0.25500 1.00000
0.66000 0.25500 1.00000
0.88000 0.25500 1.00000
0.00000 0.50000 1.00000
0.22000 0.50000 1.00000
0.44000 0.50000 1.00000
0.66000 0.50000 1.00000
0.88000 0.50000 1.00000
0.00000 0.74500 1.00000
0.22000 0.74500 1.00000
0.44000 0.74500 1.00000
0.66000 0.74500 1.00000
0.88000 0.74500 1.00000
0.00000 0.99000 1.00000
0.22000 0.99000 1.00000
0.44000 0.99000 1.00000
0.66000 0.99000 1.00000
0.88000 0.99000 1.00000
