demos/20-look-book/resources/look_cool.cube
TITLE "look_cool"
LUT_3D_SIZE 17
0.00000 0.01000 0.03000
0.05500 0.01000 0.03000
0.11000 0.01000 0.03000
0.16500 0.01000 0.03000
0.22000 0.01000 0.03000
0.27500 0.01000 0.03000
0.33000 0.01000 0.03000
0.38500 0.01000 0.03000
0.44000 0.01000 0.03000
0.49500 0.01000 0.03000
0.55000 0.01000 0.03000
0.60500 0.01000 0.03000
0.66000 0.01000 0.03000
0.71500 0.01000 0.03000
0.77000 0.01000 0.03000
0.82500 0.01000 0.03000
0.88000 0.01000 0.03000
0.00000 0.07125 0.03000
0.05500 0.07125 0.03000
0.11000 0.07125 0.03000
0.16500 0.07125 0.03000
0.22000 0.07125 0.03000
0.27500 0.07125 0.03000
0.33000 0.07125 0.03000
0.38500 0.07125 0.03000
0.44000 0.07125 0.03000
0.49500 0.07125 0.03000
0.55000 0.07125 0.03000
0.60500 0.07125 0.03000
0.66000 0.07125 0.03000
0.71500 0.07125 0.03000
0.77000 0.07125 0.03000
0.82500 0.07125 0.03000
0.88000 0.07125 0.03000
0.00000 0.13250 0.03000
0.05500 0.13250 0.03000
0.11000 0.13250 0.03000
0.16500 0.13250 0.03000
0.22000 0.13250 0.03000
0.27500 0.13250 0.03000
0.33000 0.13250 0.03000
0.38500 0.13250 0.03000
0.44000 0.13250 0.03000
0.49500 0.13250 0.03000
0.55000 0.13250 0.03000
0.60500 0.13250 0.03000
0.66000 0.13250 0.03000
0.71500 0.13250 0.03000
0.77000 0.13250 0.03000
0.82500 0.13250 0.03000
0.88000 0.13250 0.03000
0.00000 0.19375 0.03000
0.05500 0.19375 0.03000
0.11000 0.19375 0.03000
0.16500 0.19375 0.03000
0.22000 0.19375 0.03000
0.27500 0.19375 0.03000
0.33000 0.19375 0.03000
0.38500 0.19375 0.03000
0.44000 0.19375 0.03000
0.49500 0.19375 0.03000
0.55000 0.19375 0.03000
0.60500 0.19375 0.03000
0.66000 0.19375 0.03000
0.71500 0.19375 0.03000
0.77000 0.19375 0.03000
0.82500 0.19375 0.03000
0.88000 0.19375 0.03000
0.00000 0.25500 0.03000
0.05500 0.25500 0.03000
0.11000 0.25500 0.03000
0.16500 0.25500 0.03000
0.22000 0.25500 0.03000
0.27500 0.25500 0.03000
0.33000 0.25500 0.03000
0.38500 0.25500 0.03000
0.44000 0.25500 0.03000
0.49500 0.25500 0.03000
0.55000 0.25500 0.03000
0.60500 0.25500 0.03000
0.66000 0.25500 0.03000
0.71500 0.25500 0.03000
0.77000 0.25500 0.03000
0.82500 0.25500 0.03000
0.88000 0.25500 0.03000
0.00000 0.31625 0.03000
0.05500 0.31625 0.03000
0.11000 0.31625 0.03000
0.16500 0.31625 0.03000
0.22000 0.31625 0.03000
0.27500 0.31625 0.03000
0.33000 0.31625 0.03000
0.38500 0.31625 0.03000
0.44000 0.31625 0.03000
0.49500 0.31625 0.03000
0.55000 0.31625 0.03000
0.60500 0.31625 0.03000
0.66000 0.31625 0.03000
0.71500 0.31625 0.03000
0.77000 0.31625 0.03000
0.82500 0.31625 0.03000
0.88000 0.31625 0.03000
0.00000 0.37750 0.03000
0.05500 0.37750 0.03000
0.11000 0.37750 0.03000
0.16500 0.37750 0.03000
0.22000 0.37750 0.03000
0.27500 0.37750 0.03000
0.33000 0.37750 0.03000
0.38500 0.37750 0.03000
0.44000 0.37750 0.03000
0.49500 0.37750 0.03000
0.55000 0.37750 0.03000
0.60500 0.37750 0.03000
0.66000 0.37750 0.03000
0.71500 0.37750 0.03000
0.77000 0.37750 0.03000
0.82500 0.37750 0.03000
0.88000 0.37750 0.03000
0.00000 0.43875 0.03000
0.05500 0.43875 0.03000
0.11000 0.43875 0.03000
0.16500 0.43875 0.03000
0.22000 0.43875 0.03000
0.27500 0.43875 0.03000
0.33000 0.43875 0.03000
0.38500 0.43875 0.03000
0.44000 0.43875 0.03000
0.49500 0.43875 0.03000
0.55000 0.43875 0.03000
0.60500 0.43875 0.03000
0.66000 0.43875 0.03000
0.71500 0.43875 0.03000
0.77000 0.43875 0.03000
0.82500 0.43875 0.03000
0.88000 0.43875 0.03000
0.00000 0.50000 0.03000
0.05500 0.50000 0.03000
0.11000 0.50000 0.03000
0.16500 0.50000 0.03000
0.22000 0.50000 0.03000
0.27500 0.50000 0.03000
0.33000 0.50000 0.03000
0.38500 0.50000 0.03000
0.44000 0.50000 0.03000
0.49500 0.50000 0.03000
0.55000 0.50000 0.03000
0.60500 0.50000 0.03000
0.66000 0.50000 0.03000
0.71500 0.50000 0.03000
0.77000 0.50000 0.03000
0.82500 0.50000 0.03000
0.88000 0.50000 0.03000
0.00000 0.56125 0.03000
0.05500 0.56125 0.03000
0.11000 0.56125 0.03000
0.16500 0.56125 0.03000
0.22000 0.56125 0.03000
0.27500 0.56125 0.03000
0.33000 0.56125 0.03000
0.38500 0.56125 0.03000
0.44000 0.56125 0.03000
0.49500 0.56125 0.03000
0.55000 0.56125 0.03000
0.60500 0.56125 0.03000
0.66000 0.56125 0.03000
0.71500 0.56125 0.03000
0.77000 0.56125 0.03000
0.82500 0.56125 0.03000
0.88000 0.56125 0.03000
0.00000 0.62250 0.03000
0.05500 0.62250 0.03000
0.11000 0.62250 0.03000
0.16500 0.62250 0.03000
0.22000 0.62250 0.03000
0.27500 0.62250 0.03000
0.33000 0.62250 0.03000
0.38500 0.62250 0.03000
0.44000 0.62250 0.03000
0.49500 0.62250 0.03000
0.55000 0.62250 0.03000
0.60500 0.62250 0.03000
0.66000 0.62250 0.03000
0.71500 0.62250 0.03000
0.77000 0.62250 0.03000
0.82500 0.62250 0.03000
0.88000 0.62250 0.03000
0.00000 0.68375 0.03000
0.05500 0.68375 0.03000
0.11000 0.68375 0.03000
0.16500 0.68375 0.03000
0.22000 0.68375 0.03000
0.27500 0.68375 0.03000
0.33000 0.68375 0.03000
0.38500 0.68375 0.03000
0.44000 0.68375 0.03000
0.49500 0.68375 0.03000
0.55000 0.68375 0.03000
0.60500 0.68375 0.03000
0.66000 0.68375 0.03000
0.71500 0.68375 0.03000
0.77000 0.68375 0.03000
0.82500 0.68375 0.03000
0.88000 0.68375 0.03000
0.00000 0.74500 0.03000
0.05500 0.74500 0.03000
0.11000 0.74500 0.03000
0.16500 0.74500 0.03000
0.22000 0.74500 0.03000
0.27500 0.74500 0.03000
0.33000 0.74500 0.03000
0.38500 0.74500 0.03000
0.44000 0.74500 0.03000
0.49500 0.74500 0.03000
0.55000 0.74500 0.03000
0.60500 0.74500 0.03000
0.66000 0.74500 0.03000
0.71500 0.74500 0.03000
0.77000 0.74500 0.03000
0.82500 0.74500 0.03000
0.88000 0.74500 0.03000
0.00000 0.80625 0.03000
0.05500 0.80625 0.03000
0.11000 0.80625 0.03000
0.16500 0.80625 0.03000
0.22000 0.80625 0.03000
0.27500 0.80625 0.03000
0.33000 0.80625 0.03000
0.38500 0.80625 0.03000
0.44000 0.80625 0.03000
0.49500 0.80625 0.03000
0.55000 0.80625 0.03000
0.60500 0.80625 0.03000
0.66000 0.80625 0.03000
0.71500 0.80625 0.03000
0.77000 0.80625 0.03000
0.82500 0.80625 0.03000
0.88000 0.80625 0.03000
0.00000 0.86750 0.03000
0.05500 0.86750 0.03000
0.11000 0.86750 0.03000
0.16500 0.86750 0.03000
0.22000 0.86750 0.03000
0.27500 0.86750 0.03000
0.33000 0.86750 0.03000
0.38500 0.86750 0.03000
0.44000 0.86750 0.03000
0.49500 0.86750 0.03000
0.55000 0.86750 0.03000
0.60500 0.86750 0.03000
0.66000 0.86750 0.03000
0.71500 0.86750 0.03000
0.77000 0.86750 0.03000
0.82500 0.86750 0.03000
0.88000 0.86750 0.03000
0.00000 0.92875 0.03000
0.05500 0.92875 0.03000
0.11000 0.92875 0.03000
0.16500 0.92875 0.03000
0.22000 0.92875 0.03000
0.27500 0.92875 0.03000
0.33000 0.92875 0.03000
0.38500 0.92875 0.03000
0.44000 0.92875 0.03000
0.49500 0.92875 0.03000
0.55000 0.92875 0.03000
0.60500 0.92875 0.03000
0.66000 0.92875 0.03000
0.71500 0.92875 0.03000
0.77000 0.92875 0.03000
0.82500 0.92875 0.03000
0.88000 0.92875 0.03000
0.00000 0.99000 0.03000
0.05500 0.99000 0.03000
0.11000 0.99000 0.03000
0.16500 0.99000 0.03000
0.22000 0.99000 0.03000
0.27500 0.99000 0.03000
0.33000 0.99000 0.03000
0.38500 0.99000 0.03000
0.44000 0.99000 0.03000
0.49500 0.99000 0.03000
0.55000 0.99000 0.03000
0.60500 0.99000 0.03000
0.66000 0.99000 0.03000
0.71500 0.99000 0.03000
0.77000 0.99000 0.03000
0.82500 0.99000 0.03000
0.88000 0.99000 0.03000
0.00000 0.01000 0.09750
0.05500 0.01000 0.09750
0.11000 0.01000 0.09750
0.16500 0.01000 0.09750
0.22000 0.01000 0.09750
0.27500 0.01000 0.09750
0.33000 0.01000 0.09750
0.38500 0.01000 0.09750
0.44000 0.01000 0.09750
0.49500 0.01000 0.09750
0.55000 0.01000 0.09750
0.60500 0.01000 0.09750
0.66000 0.01000 0.09750
0.71500 0.01000 0.09750
0.77000 0.01000 0.09750
0.82500 0.01000 0.09750
0.88000 0.01000 0.09750
0.00000 0.07125 0.09750
0.05500 0.07125 0.09750
0.11000 0.07125 0.09750
0.16500 0.07125 0.09750
0.22000 0.07125 0.09750
0.27500 0.07125 0.09750
0.33000 0.07125 0.09750
0.38500 0.07125 0.09750
0.44000 0.07125 0.09750
0.49500 0.07125 0.09750
0.55000 0.07125 0.09750
0.60500 0.07125 0.09750
0.66000 0.07125 0.09750
0.71500 0.07125 0.09750
0.77000 0.07125 0.09750
0.82500 0.07125 0.09750
0.88000 0.07125 0.09750
0.00000 0.13250 0.09750
0.05500 0.13250 0.09750
0.11000 0.13250 0.09750
0.16500 0.13250 0.09750
0.22000 0.13250 0.09750
0.27500 0.13250 0.09750
0.33000 0.13250 0.09750
0.38500 0.13250 0.09750
0.44000 0.13250 0.09750
0.49500 0.13250 0.09750
0.55000 0.13250 0.09750
0.60500 0.13250 0.09750
0.66000 0.13250 0.09750
0.71500 0.13250 0.09750
0.77000 0.13250 0.09750
0.82500 0.13250 0.09750
0.88000 0.13250 0.09750
0.00000 0.19375 0.09750
0.05500 0.19375 0.09750
0.11000 0.19375 0.09750
0.16500 0.19375 0.09750
0.22000 0.19375 0.09750
0.27500 0.19375 0.09750
0.33000 0.19375 0.09750
0.38500 0.19375 0.09750
0.44000 0.19375 0.09750
0.49500 0.19375 0.09750
0.55000 0.19375 0.09750
0.60500 0.19375 0.09750
0.66000 0.19375 0.09750
0.71500 0.19375 0.09750
0.77000 0.19375 0.09750
0.82500 0.19375 0.09750
0.88000 0.19375 0.09750
0.00000 0.25500 0.09750
0.05500 0.25500 0.09750
0.11000 0.25500 0.09750
0.16500 0.25500 0.09750
0.22000 0.25500 0.09750
0.27500 0.25500 0.09750
0.33000 0.25500 0.09750
0.38500 0.25500 0.09750
0.44000 0.25500 0.09750
0.49500 0.25500 0.09750
0.55000 0.25500 0.09750
0.60500 0.25500 0.09750
0.66000 0.25500 0.09750
0.71500 0.25500 0.09750
0.77000 0.25500 0.09750
0.82500 0.25500 0.09750
0.88000 0.25500 0.09750
0.00000 0.31625 0.09750
0.05500 0.31625 0.09750
0.11000 0.31625 0.09750
0.16500 0.31625 0.09750
0.22000 0.31625 0.09750
0.27500 0.31625 0.09750
0.33000 0.31625 0.09750
0.38500 0.31625 0.09750
0.44000 0.31625 0.09750
0.49500 0.31625 0.09750
0.55000 0.31625 0.09750
0.60500 0.31625 0.09750
0.66000 0.31625 0.09750
0.71500 0.31625 0.09750
0.77000 0.31625 0.09750
0.82500 0.31625 0.09750
0.88000 0.31625 0.09750
0.00000 0.37750 0.09750
0.05500 0.37750 0.09750
0.11000 0.37750 0.09750
0.16500 0.37750 0.09750
0.22000 0.37750 0.09750
0.27500 0.37750 0.09750
0.33000 0.37750 0.09750
0.38500 0.37750 0.09750
0.44000 0.37750 0.09750
0.49500 0.37750 0.09750
0.55000 0.37750 0.09750
0.60500 0.37750 0.09750
0.66000 0.37750 0.09750
0.71500 0.37750 0.09750
0.77000 0.37750 0.09750
0.82500 0.37750 0.09750
0.88000 0.37750 0.09750
0.00000 0.43875 0.09750
0.05500 0.43875 0.09750
0.11000 0.43875 0.09750
0.16500 0.43875 0.09750
0.22000 0.43875 0.09750
0.27500 0.43875 0.09750
0.33000 0.43875 0.09750
0.38500 0.43875 0.09750
0.44000 0.43875 0.09750
0.49500 0.43875 0.09750
0.55000 0.43875 0.09750
0.60500 0.43875 0.09750
0.66000 0.43875 0.09750
0.71500 0.43875 0.09750
0.77000 0.43875 0.09750
0.82500 0.43875 0.09750
0.88000 0.43875 0.09750
0.00000 0.50000 0.09750
0.05500 0.50000 0.09750
0.11000 0.50000 0.09750
0.16500 0.50000 0.09750
0.22000 0.50000 0.09750
0.27500 0.50000 0.09750
0.33000 0.50000 0.09750
0.38500 0.50000 0.09750
0.44000 0.50000 0.09750
0.49500 0.50000 0.09750
0.55000 0.50000 0.09750
0.60500 0.50000 0.09750
0.66000 0.50000 0.09750
0.71500 0.50000 0.09750
0.77000 0.50000 0.09750
0.82500 0.50000 0.09750
0.88000 0.50000 0.09750
0.00000 0.56125 0.09750
0.05500 0.56125 0.09750
0.11000 0.56125 0.09750
0.16500 0.56125 0.09750
0.22000 0.56125 0.09750
0.27500 0.56125 0.09750
0.33000 0.56125 0.09750
0.38500 0.56125 0.09750
0.44000 0.56125 0.09750
0.49500 0.56125 0.09750
0.55000 0.56125 0.09750
0.60500 0.56125 0.09750
0.66000 0.56125 0.09750
0.71500 0.56125 0.09750
0.77000 0.56125 0.09750
0.82500 0.56125 0.09750
0.88000 0.56125 0.09750
0.00000 0.62250 0.09750
0.05500 0.62250 0.09750
0.11000 0.62250 0.09750
0.16500 0.62250 0.09750
0.22000 0.62250 0.09750
0.27500 0.62250 0.09750
0.33000 0.62250 0.09750
0.38500 0.62250 0.09750
0.44000 0.62250 0.09750
0.49500 0.62250 0.09750
0.55000 0.62250 0.09750
0.60500 0.62250 0.09750
0.66000 0.62250 0.09750
0.71500 0.62250 0.09750
0.77000 0.62250 0.09750
0.82500 0.62250 0.09750
0.88000 0.62250 0.09750
0.00000 0.68375 0.09750
0.05500 0.68375 0.09750
0.11000 0.68375 0.09750
0.16500 0.68375 0.09750
0.22000 0.68375 0.09750
0.27500 0.68375 0.09750
0.33000 0.68375 0.09750
0.38500 0.68375 0.09750
0.44000 0.68375 0.09750
0.49500 0.68375 0.09750
0.55000 0.68375 0.09750
0.60500 0.68375 0.09750
0.66000 0.68375 0.09750
0.71500 0.68375 0.09750
0.77000 0.68375 0.09750
0.82500 0.68375 0.09750
0.88000 0.68375 0.09750
0.00000 0.74500 0.09750
0.05500 0.74500 0.09750
0.11000 0.74500 0.09750
0.16500 0.74500 0.09750
0.22000 0.74500 0.09750
0.27500 0.74500 0.09750
0.33000 0.74500 0.09750
0.38500 0.74500 0.09750
0.44000 0.74500 0.09750
0.49500 0.74500 0.09750
0.55000 0.74500 0.09750
0.60500 0.74500 0.09750
0.66000 0.74500 0.09750
0.71500 0.74500 0.09750
0.77000 0.74500 0.09750
0.82500 0.74500 0.09750
0.88000 0.74500 0.09750
0.00000 0.80625 0.09750
0.05500 0.80625 0.09750
0.11000 0.80625 0.09750
0.16500 0.80625 0.09750
0.22000 0.80625 0.09750
0.27500 0.80625 0.09750
0.33000 0.80625 0.09750
0.38500 0.80625 0.09750
0.44000 0.80625 0.09750
0.49500 0.80625 0.09750
0.55000 0.80625 0.09750
0.60500 0.80625 0.09750
0.66000 0.80625 0.09750
0.71500 0.80625 0.09750
0.77000 0.80625 0.09750
0.82500 0.80625 0.09750
0.88000 0.80625 0.09750
0.00000 0.86750 0.09750
0.05500 0.86750 0.09750
0.11000 0.86750 0.09750
0.16500 0.86750 0.09750
0.22000 0.86750 0.09750
0.27500 0.86750 0.09750
0.33000 0.86750 0.09750
0.38500 0.86750 0.09750
0.44000 0.86750 0.09750
0.49500 0.86750 0.09750
0.55000 0.86750 0.09750
0.60500 0.86750 0.09750
0.66000 0.86750 0.09750
0.71500 0.86750 0.09750
0.77000 0.86750 0.09750
0.82500 0.86750 0.09750
0.88000 0.86750 0.09750
0.00000 0.92875 0.09750
0.05500 0.92875 0.09750
0.11000 0.92875 0.09750
0.16500 0.92875 0.09750
0.22000 0.92875 0.09750
0.27500 0.92875 0.09750
0.33000 0.92875 0.09750
0.38500 0.92875 0.09750
0.44000 0.92875 0.09750
0.49500 0.92875 0.09750
0.55000 0.92875 0.09750
0.60500 0.92875 0.09750
0.66000 0.92875 0.09750
0.71500 0.92875 0.09750
0.77000 0.92875 0.09750
0.82500 0.92875 0.09750
0.88000 0.92875 0.09750
0.00000 0.99000 0.09750
0.05500 0.99000 0.09750
0.11000 0.99000 0.09750
0.16500 0.99000 0.09750
0.22000 0.99000 0.09750
0.27500 0.99000 0.09750
0.33000 0.99000 0.09750
0.38500 0.99000 0.09750
0.44000 0.99000 0.09750
0.49500 0.99000 0.09750
0.55000 0.99000 0.09750
0.60500 0.99000 0.09750
0.66000 0.99000 0.09750
0.71500 0.99000 0.09750
0.77000 0.99000 0.09750
0.82500 0.99000 0.09750
0.88000 0.99000 0.09750
0.00000 0.01000 0.16500
0.05500 0.01000 0.16500
0.11000 0.01000 0.16500
0.16500 0.01000 0.16500
0.22000 0.01000 0.16500
0.27500 0.01000 0.16500
0.33000 0.01000 0.16500
0.38500 0.01000 0.16500
0.44000 0.01000 0.16500
0.49500 0.01000 0.16500
0.55000 0.01000 0.16500
0.60500 0.01000 0.16500
0.66000 0.01000 0.16500
0.71500 0.01000 0.16500
0.77000 0.01000 0.16500
0.82500 0.01000 0.16500
0.88000 0.01000 0.16500
0.00000 0.07125 0.16500
0.05500 0.07125 0.16500
0.11000 0.07125 0.16500
0.16500 0.07125 0.16500
0.22000 0.07125 0.16500
0.27500 0.07125 0.16500
0.33000 0.07125 0.16500
0.38500 0.07125 0.16500
0.44000 0.07125 0.16500
0.49500 0.07125 0.16500
0.55000 0.07125 0.16500
0.60500 0.07125 0.16500
0.66000 0.07125 0.16500
0.71500 0.07125 0.16500
0.77000 0.07125 0.16500
0.82500 0.07125 0.16500
0.88000 0.07125 0.16500
0.00000 0.13250 0.16500
0.05500 0.13250 0.16500
0.11000 0.13250 0.16500
0.16500 0.13250 0.16500
0.22000 0.13250 0.16500
0.27500 0.13250 0.16500
0.33000 0.13250 0.16500
0.38500 0.13250 0.16500
0.44000 0.13250 0.16500
0.49500 0.13250 0.16500
0.55000 0.13250 0.16500
0.60500 0.13250 0.16500
0.66000 0.13250 0.16500
0.71500 0.13250 0.16500
0.77000 0.13250 0.16500
0.82500 0.13250 0.16500
0.88000 0.13250 0.16500
0.00000 0.19375 0.16500
0.05500 0.19375 0.16500
0.11000 0.19375 0.16500
0.16500 0.19375 0.16500
0.22000 0.19375 0.16500
0.27500 0.19375 0.16500
0.33000 0.19375 0.16500
0.38500 0.19375 0.16500
0.44000 0.19375 0.16500
0.49500 0.19375 0.16500
0.55000 0.19375 0.16500
0.60500 0.19375 0.16500
0.66000 0.19375 0.16500
0.71500 0.19375 0.16500
0.77000 0.19375 0.16500
0.82500 0.19375 0.16500
0.88000 0.19375 0.16500
0.00000 0.25500 0.16500
0.05500 0.25500 0.16500
0.11000 0.25500 0.16500
0.16500 0.25500 0.16500
0.22000 0.25500 0.16500
0.27500 0.25500 0.16500
0.33000 0.25500 0.16500
0.38500 0.25500 0.16500
0.44000 0.25500 0.16500
0.49500 0.25500 0.16500
0.55000 0.25500 0.16500
0.60500 0.25500 0.16500
0.66000 0.25500 0.16500
0.71500 0.25500 0.16500
0.77000 0.25500 0.16500
0.82500 0.25500 0.16500
0.88000 0.25500 0.16500
0.00000 0.31625 0.16500
0.05500 0.31625 0.16500
0.11000 0.31625 0.16500
0.16500 0.31625 0.16500
0.22000 0.31625 0.16500
0.27500 0.31625 0.16500
0.33000 0.31625 0.16500
0.38500 0.31625 0.16500
0.44000 0.31625 0.16500
0.49500 0.31625 0.16500
0.55000 0.31625 0.16500
0.60500 0.31625 0.16500
0.66000 0.31625 0.16500
0.71500 0.31625 0.16500
0.77000 0.31625 0.16500
0.82500 0.31625 0.16500
0.88000 0.31625 0.16500
0.00000 0.37750 0.16500
0.05500 0.37750 0.16500
0.11000 0.37750 0.16500
0.16500 0.37750 0.16500
0.22000 0.37750 0.16500
0.27500 0.37750 0.16500
0.33000 0.37750 0.16500
0.38500 0.37750 0.16500
0.44000 0.37750 0.16500
0.49500 0.37750 0.16500
0.55000 0.37750 0.16500
0.60500 0.37750 0.16500
0.66000 0.37750 0.16500
0.71500 0.37750 0.16500
0.77000 0.37750 0.16500
0.82500 0.37750 0.16500
0.88000 0.37750 0.16500
0.00000 0.43875 0.16500
0.05500 0.43875 0.16500
0.11000 0.43875 0.16500
0.16500 0.43875 0.16500
0.22000 0.43875 0.16500
0.27500 0.43875 0.16500
0.33000 0.43875 0.16500
0.38500 0.43875 0.16500
0.44000 0.43875 0.16500
0.49500 0.43875 0.16500
0.55000 0.43875 0.16500
0.60500 0.43875 0.16500
0.66000 0.43875 0.16500
0.71500 0.43875 0.16500
0.77000 0.43875 0.16500
0.82500 0.43875 0.16500
0.88000 0.43875 0.16500
0.00000 0.50000 0.16500
0.05500 0.50000 0.16500
0.11000 0.50000 0.16500
0.16500 0.50000 0.16500
0.22000 0.50000 0.16500
0.27500 0.50000 0.16500
0.33000 0.50000 0.16500
0.38500 0.50000 0.16500
0.44000 0.50000 0.16500
0.49500 0.50000 0.16500
0.55000 0.50000 0.16500
0.60500 0.50000 0.16500
0.66000 0.50000 0.16500
0.71500 0.50000 0.16500
0.77000 0.50000 0.16500
0.82500 0.50000 0.16500
0.88000 0.50000 0.16500
0.00000 0.56125 0.16500
0.05500 0.56125 0.16500
0.11000 0.56125 0.16500
0.16500 0.56125 0.16500
0.22000 0.56125 0.16500
0.27500 0.56125 0.16500
0.33000 0.56125 0.16500
0.38500 0.56125 0.16500
0.44000 0.56125 0.16500
0.49500 0.56125 0.16500
0.55000 0.56125 0.16500
0.60500 0.56125 0.16500
0.66000 0.56125 0.16500
0.71500 0.56125 0.16500
0.77000 0.56125 0.16500
0.82500 0.56125 0.16500
0.88000 0.56125 0.16500
0.00000 0.62250 0.16500
0.05500 0.62250 0.16500
0.11000 0.62250 0.16500
0.16500 0.62250 0.16500
0.22000 0.62250 0.16500
0.27500 0.62250 0.16500
0.33000 0.62250 0.16500
0.38500 0.62250 0.16500
0.44000 0.62250 0.16500
0.49500 0.62250 0.16500
0.55000 0.62250 0.16500
0.60500 0.62250 0.16500
0.66000 0.62250 0.16500
0.71500 0.62250 0.16500
0.77000 0.62250 0.16500
0.82500 0.62250 0.16500
0.88000 0.62250 0.16500
0.00000 0.68375 0.16500
0.05500 0.68375 0.16500
0.11000 0.68375 0.16500
0.16500 0.68375 0.16500
0.22000 0.68375 0.16500
0.27500 0.68375 0.16500
0.33000 0.68375 0.16500
0.38500 0.68375 0.16500
0.44000 0.68375 0.16500
0.49500 0.68375 0.16500
0.55000 0.68375 0.16500
0.60500 0.68375 0.16500
0.66000 0.68375 0.16500
0.71500 0.68375 0.16500
0.77000 0.68375 0.16500
0.82500 0.68375 0.16500
0.88000 0.68375 0.16500
0.00000 0.74500 0.16500
0.05500 0.74500 0.16500
0.11000 0.74500 0.16500
0.16500 0.74500 0.16500
0.22000 0.74500 0.16500
0.27500 0.74500 0.16500
0.33000 0.74500 0.16500
0.38500 0.74500 0.16500
0.44000 0.74500 0.16500
0.49500 0.74500 0.16500
0.55000 0.74500 0.16500
0.60500 0.74500 0.16500
0.66000 0.74500 0.16500
0.71500 0.74500 0.16500
0.77000 0.74500 0.16500
0.82500 0.74500 0.16500
0.88000 0.74500 0.16500
0.00000 0.80625 0.16500
0.05500 0.80625 0.16500
0.11000 0.80625 0.16500
0.16500 0.80625 0.16500
0.22000 0.80625 0.16500
0.27500 0.80625 0.16500
0.33000 0.80625 0.16500
0.38500 0.80625 0.16500
0.44000 0.80625 0.16500
0.49500 0.80625 0.16500
0.55000 0.80625 0.16500
0.60500 0.80625 0.16500
0.66000 0.80625 0.16500
0.71500 0.80625 0.16500
0.77000 0.80625 0.16500
0.82500 0.80625 0.16500
0.88000 0.80625 0.16500
0.00000 0.86750 0.16500
0.05500 0.86750 0.16500
0.11000 0.86750 0.16500
0.16500 0.86750 0.16500
0.22000 0.86750 0.16500
0.27500 0.86750 0.16500
0.33000 0.86750 0.16500
0.38500 0.86750 0.16500
0.44000 0.86750 0.16500
0.49500 0.86750 0.16500
0.55000 0.86750 0.16500
0.60500 0.86750 0.16500
0.66000 0.86750 0.16500
0.71500 0.86750 0.16500
0.77000 0.86750 0.16500
0.82500 0.86750 0.16500
0.88000 0.86750 0.16500
0.00000 0.92875 0.16500
0.05500 0.92875 0.16500
0.11000 0.92875 0.16500
0.16500 0.92875 0.16500
0.22000 0.92875 0.16500
0.27500 0.92875 0.16500
0.33000 0.92875 0.16500
0.38500 0.92875 0.16500
0.44000 0.92875 0.16500
0.49500 0.92875 0.16500
0.55000 0.92875 0.16500
0.60500 0.92875 0.16500
0.66000 0.92875 0.16500
0.71500 0.92875 0.16500
0.77000 0.92875 0.16500
0.82500 0.92875 0.16500
0.88000 0.92875 0.16500
0.00000 0.99000 0.16500
0.05500 0.99000 0.16500
0.11000 0.99000 0.16500
0.16500 0.99000 0.16500
0.22000 0.99000 0.16500
0.27500 0.99000 0.16500
0.33000 0.99000 0.16500
0.38500 0.99000 0.16500
0.44000 0.99000 0.16500
0.49500 0.99000 0.16500
0.55000 0.99000 0.16500
0.60500 0.99000 0.16500
0.66000 0.99000 0.16500
0.71500 0.99000 0.16500
0.77000 0.99000 0.16500
0.82500 0.99000 0.16500
0.88000 0.99000 0.16500
0.00000 0.01000 0.23250
0.05500 0.01000 0.23250
0.11000 0.01000 0.23250
0.16500 0.01000 0.23250
0.22000 0.01000 0.23250
0.27500 0.01000 0.23250
0.33000 0.01000 0.23250
0.38500 0.01000 0.23250
0.44000 0.01000 0.23250
0.49500 0.01000 0.23250
0.55000 0.01000 0.23250
0.60500 0.01000 0.23250
0.66000 0.01000 0.23250
0.71500 0.01000 0.23250
0.77000 0.01000 0.23250
0.82500 0.01000 0.23250
0.88000 0.01000 0.23250
0.00000 0.07125 0.23250
0.05500 0.07125 0.23250
0.11000 0.07125 0.23250
0.16500 0.07125 0.23250
0.22000 0.07125 0.23250
0.27500 0.07125 0.23250
0.33000 0.07125 0.23250
0.38500 0.07125 0.23250
0.44000 0.07125 0.23250
0.49500 0.07125 0.23250
0.55000 0.07125 0.23250
0.60500 0.07125 0.23250
0.66000 0.07125 0.23250
0.71500 0.07125 0.23250
0.77000 0.07125 0.23250
0.82500 0.07125 0.23250
