demos/20-look-book/resources/look_cool.cube
TITLE "look_cool"
LUT_3D_SIZE 9
0.00000 0.01000 0.03000
0.11000 0.01000 0.03000
0.22000 0.01000 0.03000
0.33000 0.01000 0.03000
0.44000 0.01000 0.03000
0.55000 0.01000 0.03000
0.66000 0.01000 0.03000
0.77000 0.01000 0.03000
0.88000 0.01000 0.03000
0.00000 0.13250 0.03000
0.11000 0.13250 0.03000
0.22000 0.13250 0.03000
0.33000 0.13250 0.03000
0.44000 0.13250 0.03000
0.55000 0.13250 0.03000
0.66000 0.13250 0.03000
0.77000 0.13250 0.03000
0.88000 0.13250 0.03000
0.00000 0.25500 0.03000
0.11000 0.25500 0.03000
0.22000 0.25500 0.03000
0.33000 0.25500 0.03000
0.44000 0.25500 0.03000
0.55000 0.25500 0.03000
0.66000 0.25500 0.03000
0.77000 0.25500 0.03000
0.88000 0.25500 0.03000
0.00000 0.37750 0.03000
0.11000 0.37750 0.03000
0.22000 0.37750 0.03000
0.33000 0.37750 0.03000
0.44000 0.37750 0.03000
0.55000 0.37750 0.03000
0.66000 0.37750 0.03000
0.77000 0.37750 0.03000
0.88000 0.37750 0.03000
0.00000 0.50000 0.03000
0.11000 0.50000 0.03000
0.22000 0.50000 0.03000
0.33000 0.50000 0.03000
0.44000 0.50000 0.03000
0.55000 0.50000 0.03000
0.66000 0.50000 0.03000
0.77000 0.50000 0.03000
0.88000 0.50000 0.03000
0.00000 0.62250 0.03000
0.11000 0.62250 0.03000
0.22000 0.62250 0.03000
0.33000 0.62250 0.03000
0.44000 0.62250 0.03000
0.55000 0.62250 0.03000
0.66000 0.62250 0.03000
0.77000 0.62250 0.03000
0.88000 0.62250 0.03000
0.00000 0.74500 0.03000
0.11000 0.74500 0.03000
0.22000 0.74500 0.03000
0.33000 0.74500 0.03000
0.44000 0.74500 0.03000
0.55000 0.74500 0.03000
0.66000 0.74500 0.03000
0.77000 0.74500 0.03000
0.88000 0.74500 0.03000
0.00000 0.86750 0.03000
0.11000 0.86750 0.03000
0.22000 0.86750 0.03000
0.33000 0.86750 0.03000
0.44000 0.86750 0.03000
0.55000 0.86750 0.03000
0.66000 0.86750 0.03000
0.77000 0.86750 0.03000
0.88000 0.86750 0.03000
0.00000 0.99000 0.03000
0.11000 0.99000 0.03000
0.22000 0.99000 0.03000
0.33000 0.99000 0.03000
0.44000 0.99000 0.03000
0.55000 0.99000 0.03000
0.66000 0.99000 0.03000
0.77000 0.99000 0.03000
0.88000 0.99000 0.03000
0.00000 0.01000 0.16500
0.11000 0.01000 0.16500
0.22000 0.01000 0.16500
0.33000 0.01000 0.16500
0.44000 0.01000 0.16500
0.55000 0.01000 0.16500
0.66000 0.01000 0.16500
0.77000 0.01000 0.16500
0.88000 0.01000 0.16500
0.00000 0.13250 0.16500
0.11000 0.13250 0.16500
0.22000 0.13250 0.16500
0.33000 0.13250 0.16500
0.44000 0.13250 0.16500
0.55000 0.13250 0.16500
0.66000 0.13250 0.16500
0.77000 0.13250 0.16500
0.88000 0.13250 0.16500
0.00000 0.25500 0.16500
0.11000 0.25500 0.16500
0.22000 0.25500 0.16500
0.33000 0.25500 0.16500
0.44000 0.25500 0.16500
0.55000 0.25500 0.16500
0.66000 0.25500 0.16500
0.77000 0.25500 0.16500
0.88000 0.25500 0.16500
0.00000 0.37750 0.16500
0.11000 0.37750 0.16500
0.22000 0.37750 0.16500
0.33000 0.37750 0.16500
0.44000 0.37750 0.16500
0.55000 0.37750 0.16500
0.66000 0.37750 0.16500
0.77000 0.37750 0.16500
0.88000 0.37750 0.16500
0.00000 0.50000 0.16500
0.11000 0.50000 0.16500
0.22000 0.50000 0.16500
0.33000 0.50000 0.16500
0.44000 0.50000 0.16500
0.55000 0.50000 0.16500
0.66000 0.50000 0.16500
0.77000 0.50000 0.16500
0.88000 0.50000 0.16500
0.00000 0.62250 0.16500
0.11000 0.62250 0.16500
0.22000 0.62250 0.16500
0.33000 0.62250 0.16500
0.44000 0.62250 0.16500
0.55000 0.62250 0.16500
0.66000 0.62250 0.16500
0.77000 0.62250 0.16500
0.88000 0.62250 0.16500
0.00000 0.74500 0.16500
0.11000 0.74500 0.16500
0.22000 0.74500 0.16500
0.33000 0.74500 0.16500
0.44000 0.74500 0.16500
0.55000 0.74500 0.16500
0.66000 0.74500 0.16500
0.77000 0.74500 0.16500
0.88000 0.74500 0.16500
0.00000 0.86750 0.16500
0.11000 0.86750 0.16500
0.22000 0.86750 0.16500
0.33000 0.86750 0.16500
0.44000 0.86750 0.16500
0.55000 0.86750 0.16500
0.66000 0.86750 0.16500
0.77000 0.86750 0.16500
0.88000 0.86750 0.16500
0.00000 0.99000 0.16500
0.11000 0.99000 0.16500
0.22000 0.99000 0.16500
0.33000 0.99000 0.16500
0.44000 0.99000 0.16500
0.55000 0.99000 0.16500
0.66000 0.99000 0.16500
0.77000 0.99000 0.16500
0.88000 0.99000 0.16500
0.00000 0.01000 0.30000
0.11000 0.01000 0.30000
0.22000 0.01000 0.30000
0.33000 0.01000 0.30000
0.44000 0.01000 0.30000
0.55000 0.01000 0.30000
0.66000 0.01000 0.30000
0.77000 0.01000 0.30000
0.88000 0.01000 0.30000
0.00000 0.13250 0.30000
0.11000 0.13250 0.30000
0.22000 0.13250 0.30000
0.33000 0.13250 0.30000
0.44000 0.13250 0.30000
0.55000 0.13250 0.30000
0.66000 0.13250 0.30000
0.77000 0.13250 0.30000
0.88000 0.13250 0.30000
0.00000 0.25500 0.30000
0.11000 0.25500 0.30000
0.22000 0.25500 0.30000
0.33000 0.25500 0.30000
0.44000 0.25500 0.30000
0.55000 0.25500 0.30000
0.66000 0.25500 0.30000
0.77000 0.25500 0.30000
0.88000 0.25500 0.30000
0.00000 0.37750 0.30000
0.11000 0.37750 0.30000
0.22000 0.37750 0.30000
0.33000 0.37750 0.30000
0.44000 0.37750 0.30000
0.55000 0.37750 0.30000
0.66000 0.37750 0.30000
0.77000 0.37750 0.30000
0.88000 0.37750 0.30000
0.00000 0.50000 0.30000
0.11000 0.50000 0.30000
0.22000 0.50000 0.30000
0.33000 0.50000 0.30000
0.44000 0.50000 0.30000
0.55000 0.50000 0.30000
0.66000 0.50000 0.30000
0.77000 0.50000 0.30000
0.88000 0.50000 0.30000
0.00000 0.62250 0.30000
0.11000 0.62250 0.30000
0.22000 0.62250 0.30000
0.33000 0.62250 0.30000
0.44000 0.62250 0.30000
0.55000 0.62250 0.30000
0.66000 0.62250 0.30000
0.77000 0.62250 0.30000
0.88000 0.62250 0.30000
0.00000 0.74500 0.30000
0.11000 0.74500 0.30000
0.22000 0.74500 0.30000
0.33000 0.74500 0.30000
0.44000 0.74500 0.30000
0.55000 0.74500 0.30000
0.66000 0.74500 0.30000
0.77000 0.74500 0.30000
0.88000 0.74500 0.30000
0.00000 0.86750 0.30000
0.11000 0.86750 0.30000
0.22000 0.86750 0.30000
0.33000 0.86750 0.30000
0.44000 0.86750 0.30000
0.55000 0.86750 0.30000
0.66000 0.86750 0.30000
0.77000 0.86750 0.30000
0.88000 0.86750 0.30000
0.00000 0.99000 0.30000
0.11000 0.99000 0.30000
0.22000 0.99000 0.30000
0.33000 0.99000 0.30000
0.44000 0.99000 0.30000
0.55000 0.99000 0.30000
0.66000 0.99000 0.30000
0.77000 0.99000 0.30000
0.88000 0.99000 0.30000
0.00000 0.01000 0.43500
0.11000 0.01000 0.43500
0.22000 0.01000 0.43500
0.33000 0.01000 0.43500
0.44000 0.01000 0.43500
0.55000 0.01000 0.43500
0.66000 0.01000 0.43500
0.77000 0.01000 0.43500
0.88000 0.01000 0.43500
0.00000 0.13250 0.43500
0.11000 0.13250 0.43500
0.22000 0.13250 0.43500
0.33000 0.13250 0.43500
0.44000 0.13250 0.43500
0.55000 0.13250 0.43500
0.66000 0.13250 0.43500
0.77000 0.13250 0.43500
0.88000 0.13250 0.43500
0.00000 0.25500 0.43500
0.11000 0.25500 0.43500
0.22000 0.25500 0.43500
0.33000 0.25500 0.43500
0.44000 0.25500 0.43500
0.55000 0.25500 0.43500
0.66000 0.25500 0.43500
0.77000 0.25500 0.43500
0.88000 0.25500 0.43500
0.00000 0.37750 0.43500
0.11000 0.37750 0.43500
0.22000 0.37750 0.43500
0.33000 0.37750 0.43500
0.44000 0.37750 0.43500
0.55000 0.37750 0.43500
0.66000 0.37750 0.43500
0.77000 0.37750 0.43500
0.88000 0.37750 0.43500
0.00000 0.50000 0.43500
0.11000 0.50000 0.43500
0.22000 0.50000 0.43500
0.33000 0.50000 0.43500
0.44000 0.50000 0.43500
0.55000 0.50000 0.43500
0.66000 0.50000 0.43500
0.77000 0.50000 0.43500
0.88000 0.50000 0.43500
0.00000 0.62250 0.43500
0.11000 0.62250 0.43500
0.22000 0.62250 0.43500
0.33000 0.62250 0.43500
0.44000 0.62250 0.43500
0.55000 0.62250 0.43500
0.66000 0.62250 0.43500
0.77000 0.62250 0.43500
0.88000 0.62250 0.43500
0.00000 0.74500 0.43500
0.11000 0.74500 0.43500
0.22000 0.74500 0.43500
0.33000 0.74500 0.43500
0.44000 0.74500 0.43500
0.55000 0.74500 0.43500
0.66000 0.74500 0.43500
0.77000 0.74500 0.43500
0.88000 0.74500 0.43500
0.00000 0.86750 0.43500
0.11000 0.86750 0.43500
0.22000 0.86750 0.43500
0.33000 0.86750 0.43500
0.44000 0.86750 0.43500
0.55000 0.86750 0.43500
0.66000 0.86750 0.43500
0.77000 0.86750 0.43500
0.88000 0.86750 0.43500
0.00000 0.99000 0.43500
0.11000 0.99000 0.43500
0.22000 0.99000 0.43500
0.33000 0.99000 0.43500
0.44000 0.99000 0.43500
0.55000 0.99000 0.43500
0.66000 0.99000 0.43500
0.77000 0.99000 0.43500
0.88000 0.99000 0.43500
0.00000 0.01000 0.57000
0.11000 0.01000 0.57000
0.22000 0.01000 0.57000
0.33000 0.01000 0.57000
0.44000 0.01000 0.57000
0.55000 0.01000 0.57000
0.66000 0.01000 0.57000
0.77000 0.01000 0.57000
0.88000 0.01000 0.57000
0.00000 0.13250 0.57000
0.11000 0.13250 0.57000
0.22000 0.13250 0.57000
0.33000 0.13250 0.57000
0.44000 0.13250 0.57000
0.55000 0.13250 0.57000
0.66000 0.13250 0.57000
0.77000 0.13250 0.57000
0.88000 0.13250 0.57000
0.00000 0.25500 0.57000
0.11000 0.25500 0.57000
0.22000 0.25500 0.57000
0.33000 0.25500 0.57000
0.44000 0.25500 0.57000
0.55000 0.25500 0.57000
0.66000 0.25500 0.57000
0.77000 0.25500 0.57000
0.88000 0.25500 0.57000
0.00000 0.37750 0.57000
0.11000 0.37750 0.57000
0.22000 0.37750 0.57000
0.33000 0.37750 0.57000
0.44000 0.37750 0.57000
0.55000 0.37750 0.57000
0.66000 0.37750 0.57000
0.77000 0.37750 0.57000
0.88000 0.37750 0.57000
0.00000 0.50000 0.57000
0.11000 0.50000 0.57000
0.22000 0.50000 0.57000
0.33000 0.50000 0.57000
0.44000 0.50000 0.57000
0.55000 0.50000 0.57000
0.66000 0.50000 0.57000
0.77000 0.50000 0.57000
0.88000 0.50000 0.57000
0.00000 0.62250 0.57000
0.11000 0.62250 0.57000
0.22000 0.62250 0.57000
0.33000 0.62250 0.57000
0.44000 0.62250 0.57000
0.55000 0.62250 0.57000
0.66000 0.62250 0.57000
0.77000 0.62250 0.57000
0.88000 0.62250 0.57000
0.00000 0.74500 0.57000
0.11000 0.74500 0.57000
0.22000 0.74500 0.57000
0.33000 0.74500 0.57000
0.44000 0.74500 0.57000
0.55000 0.74500 0.57000
0.66000 0.74500 0.57000
0.77000 0.74500 0.57000
0.88000 0.74500 0.57000
0.00000 0.86750 0.57000
0.11000 0.86750 0.57000
0.22000 0.86750 0.57000
0.33000 0.86750 0.57000
0.44000 0.86750 0.57000
0.55000 0.86750 0.57000
0.66000 0.86750 0.57000
0.77000 0.86750 0.57000
0.88000 0.86750 0.57000
0.00000 0.99000 0.57000
0.11000 0.99000 0.57000
0.22000 0.99000 0.57000
0.33000 0.99000 0.57000
0.44000 0.99000 0.57000
0.55000 0.99000 0.57000
0.66000 0.99000 0.57000
0.77000 0.99000 0.57000
0.88000 0.99000 0.57000
0.00000 0.01000 0.70500
0.11000 0.01000 0.70500
0.22000 0.01000 0.70500
0.33000 0.01000 0.70500
0.44000 0.01000 0.70500
0.55000 0.01000 0.70500
0.66000 0.01000 0.70500
0.77000 0.01000 0.70500
0.88000 0.01000 0.70500
0.00000 0.13250 0.70500
0.11000 0.13250 0.70500
0.22000 0.13250 0.70500
0.33000 0.13250 0.70500
0.44000 0.13250 0.70500
0.55000 0.13250 0.70500
0.66000 0.13250 0.70500
0.77000 0.13250 0.70500
0.88000 0.13250 0.70500
0.00000 0.25500 0.70500
0.11000 0.25500 0.70500
0.22000 0.25500 0.70500
0.33000 0.25500 0.70500
0.44000 0.25500 0.70500
0.55000 0.25500 0.70500
0.66000 0.25500 0.70500
0.77000 0.25500 0.70500
0.88000 0.25500 0.70500
0.00000 0.37750 0.70500
0.11000 0.37750 0.70500
0.22000 0.37750 0.70500
0.33000 0.37750 0.70500
0.44000 0.37750 0.70500
0.55000 0.37750 0.70500
0.66000 0.37750 0.70500
0.77000 0.37750 0.70500
0.88000 0.37750 0.70500
0.00000 0.50000 0.70500
0.11000 0.50000 0.70500
0.22000 0.50000 0.70500
0.33000 0.50000 0.70500
0.44000 0.50000 0.70500
0.55000 0.50000 0.70500
0.66000 0.50000 0.70500
0.77000 0.50000 0.70500
0.88000 0.50000 0.70500
0.00000 0.62250 0.70500
0.11000 0.62250 0.70500
0.22000 0.62250 0.70500
0.33000 0.62250 0.70500
0.44000 0.62250 0.70500
0.55000 0.62250 0.70500
0.66000 0.62250 0.70500
0.77000 0.62250 0.70500
0.88000 0.62250 0.70500
0.00000 0.74500 0.70500
0.11000 0.74500 0.70500
0.22000 0.74500 0.70500
0.33000 0.74500 0.70500
0.44000 0.74500 0.70500
0.55000 0.74500 0.70500
0.66000 0.74500 0.70500
0.77000 0.74500 0.70500
0.88000 0.74500 0.70500
0.00000 0.86750 0.70500
0.11000 0.86750 0.70500
0.22000 0.86750 0.70500
0.33000 0.86750 0.70500
0.44000 0.86750 0.70500
0.55000 0.86750 0.70500
0.66000 0.86750 0.70500
0.77000 0.86750 0.70500
0.88000 0.86750 0.70500
0.00000 0.99000 0.70500
0.11000 0.99000 0.70500
0.22000 0.99000 0.70500
0.33000 0.99000 0.70500
0.44000 0.99000 0.70500
0.55000 0.99000 0.70500
0.66000 0.99000 0.70500
0.77000 0.99000 0.70500
0.88000 0.99000 0.70500
0.00000 0.01000 0.84000
0.11000 0.01000 0.84000
0.22000 0.01000 0.84000
0.33000 0.01000 0.84000
0.44000 0.01000 0.84000
0.55000 0.01000 0.84000
0.66000 0.01000 0.84000
0.77000 0.01000 0.84000
0.88000 0.01000 0.84000
0.00000 0.13250 0.84000
0.11000 0.13250 0.84000
0.22000 0.13250 0.84000
0.33000 0.13250 0.84000
0.44000 0.13250 0.84000
0.55000 0.13250 0.84000
0.66000 0.13250 0.84000
0.77000 0.13250 0.84000
0.88000 0.13250 0.84000
0.00000 0.25500 0.84000
0.11000 0.25500 0.84000
0.22000 0.25500 0.84000
0.33000 0.25500 0.84000
0.44000 0.25500 0.84000
0.55000 0.25500 0.84000
0.66000 0.25500 0.84000
0.77000 0.25500 0.84000
0.88000 0.25500 0.84000
0.00000 0.37750 0.84000
0.11000 0.37750 0.84000
0.22000 0.37750 0.84000
0.33000 0.37750 0.84000
0.44000 0.37750 0.84000
0.55000 0.37750 0.84000
0.66000 0.37750 0.84000
0.77000 0.37750 0.84000
0.88000 0.37750 0.84000
0.00000 0.50000 0.84000
0.11000 0.50000 0.84000
0.22000 0.50000 0.84000
0.33000 0.50000 0.84000
0.44000 0.50000 0.84000
0.55000 0.50000 0.84000
0.66000 0.50000 0.84000
0.77000 0.50000 0.84000
0.88000 0.50000 0.84000
0.00000 0.62250 0.84000
0.11000 0.62250 0.84000
0.22000 0.62250 0.84000
0.33000 0.62250 0.84000
0.44000 0.62250 0.84000
0.55000 0.62250 0.84000
0.66000 0.62250 0.84000
0.77000 0.62250 0.84000
0.88000 0.62250 0.84000
0.00000 0.74500 0.84000
0.11000 0.74500 0.84000
0.22000 0.74500 0.84000
0.33000 0.74500 0.84000
0.44000 0.74500 0.84000
0.55000 0.74500 0.84000
0.66000 0.74500 0.84000
0.77000 0.74500 0.84000
0.88000 0.74500 0.84000
0.00000 0.86750 0.84000
0.11000 0.86750 0.84000
0.22000 0.86750 0.84000
0.33000 0.86750 0.84000
0.44000 0.86750 0.84000
0.55000 0.86750 0.84000
0.66000 0.86750 0.84000
0.77000 0.86750 0.84000
0.88000 0.86750 0.84000
0.00000 0.99000 0.84000
0.11000 0.99000 0.84000
0.22000 0.99000 0.84000
0.33000 0.99000 0.84000
0.44000 0.99000 0.84000
0.55000 0.99000 0.84000
0.66000 0.99000 0.84000
0.77000 0.99000 0.84000
0.88000 0.99000 0.84000
0.00000 0.01000 0.97500
0.11000 0.01000 0.97500
0.22000 0.01000 0.97500
0.33000 0.01000 0.97500
0.44000 0.01000 0.97500
0.55000 0.01000 0.97500
0.66000 0.01000 0.97500
0.77000 0.01000 0.97500
0.88000 0.01000 0.97500
0.00000 0.13250 0.97500
0.11000 0.13250 0.97500
0.22000 0.13250 0.97500
0.33000 0.13250 0.97500
0.44000 0.13250 0.97500
0.55000 0.13250 0.97500
0.66000 0.13250 0.97500
0.77000 0.13250 0.97500
0.88000 0.13250 0.97500
0.00000 0.25500 0.97500
0.11000 0.25500 0.97500
0.22000 0.25500 0.97500
0.33000 0.25500 0.97500
0.44000 0.25500 0.97500
0.55000 0.25500 0.97500
0.66000 0.25500 0.97500
0.77000 0.25500 0.97500
0.88000 0.25500 0.97500
0.00000 0.37750 0.97500
0.11000 0.37750 0.97500
0.22000 0.37750 0.97500
0.33000 0.37750 0.97500
0.44000 0.37750 0.97500
0.55000 0.37750 0.97500
0.66000 0.37750 0.97500
0.77000 0.37750 0.97500
0.88000 0.37750 0.97500
0.00000 0.50000 0.97500
0.11000 0.50000 0.97500
0.22000 0.50000 0.97500
0.33000 0.50000 0.97500
0.44000 0.50000 0.97500
0.55000 0.50000 0.97500
0.66000 0.50000 0.97500
0.77000 0.50000 0.97500
0.88000 0.50000 0.97500
0.00000 0.62250 0.97500
0.11000 0.62250 0.97500
0.22000 0.62250 0.97500
0.33000 0.62250 0.97500
0.44000 0.62250 0.97500
0.55000 0.62250 0.97500
0.66000 0.62250 0.97500
0.77000 0.62250 0.97500
0.88000 0.62250 0.97500
0.00000 0.74500 0.97500
0.11000 0.74500 0.97500
0.22000 0.74500 0.97500
0.33000 0.74500 0.97500
0.44000 0.74500 0.97500
0.55000 0.74500 0.97500
0.66000 0.74500 0.97500
0.77000 0.74500 0.97500
0.88000 0.74500 0.97500
0.00000 0.86750 0.97500
0.11000 0.86750 0.97500
0.22000 0.86750 0.97500
0.33000 0.86750 0.97500
0.44000 0.86750 0.97500
0.55000 0.86750 0.97500
0.66000 0.86750 0.97500
0.77000 0.86750 0.97500
0.88000 0.86750 0.97500
0.00000 0.99000 0.97500
0.11000 0.99000 0.97500
0.22000 0.99000 0.97500
0.33000 0.99000 0.97500
0.44000 0.99000 0.97500
0.55000 0.99000 0.97500
0.66000 0.99000 0.97500
0.77000 0.99000 0.97500
0.88000 0.99000 0.97500
0.00000 0.01000 1.00000
0.11000 0.01000 1.00000
0.22000 0.01000 1.00000
0.33000 0.01000 1.00000
0.44000 0.01000 1.00000
0.55000 0.01000 1.00000
0.66000 0.01000 1.00000
0.77000 0.01000 1.00000
0.88000 0.01000 1.00000
0.00000 0.13250 1.00000
0.11000 0.13250 1.00000
0.22000 0.13250 1.00000
0.33000 0.13250 1.00000
0.44000 0.13250 1.00000
0.55000 0.13250 1.00000
0.66000 0.13250 1.00000
0.77000 0.13250 1.00000
0.88000 0.13250 1.00000
0.00000 0.25500 1.00000
0.11000 0.25500 1.00000
0.22000 0.25500 1.00000
0.33000 0.25500 1.00000
0.44000 0.25500 1.00000
0.55000 0.25500 1.00000
0.66000 0.25500 1.00000
0.77000 0.25500 1.00000
0.88000 0.25500 1.00000
0.00000 0.37750 1.00000
0.11000 0.37750 1.00000
0.22000 0.37750 1.00000
0.33000 0.37750 1.00000
0.44000 0.37750 1.00000
0.55000 0.37750 1.00000
0.66000 0.37750 1.00000
0.77000 0.37750 1.00000
0.88000 0.37750 1.00000
0.00000 0.50000 1.00000
0.11000 0.50000 1.00000
0.22000 0.50000 1.00000
0.33000 0.50000 1.00000
0.44000 0.50000 1.00000
0.55000 0.50000 1.00000
0.66000 0.50000 1.00000
0.77000 0.50000 1.00000
0.88000 0.50000 1.00000
0.00000 0.62250 1.00000
0.11000 0.62250 1.00000
0.22000 0.62250 1.00000
0.33000 0.62250 1.00000
0.44000 0.62250 1.00000
0.55000 0.62250 1.00000
0.66000 0.62250 1.00000
0.77000 0.62250 1.00000
0.88000 0.62250 1.00000
0.00000 0.74500 1.00000
0.11000 0.74500 1.00000
0.22000 0.74500 1.00000
0.33000 0.74500 1.00000
0.44000 0.74500 1.00000
0.55000 0.74500 1.00000
0.66000 0.74500 1.00000
0.77000 0.74500 1.00000
0.88000 0.74500 1.00000
0.00000 0.86750 1.00000
0.11000 0.86750 1.00000
0.22000 0.86750 1.00000
0.33000 0.86750 1.00000
0.44000 0.86750 1.00000
0.55000 0.86750 1.00000
0.66000 0.86750 1.00000
0.77000 0.86750 1.00000
0.88000 0.86750 1.00000
0.00000 0.99000 1.00000
0.11000 0.99000 1.00000
0.22000 0.99000 1.00000
0.33000 0.99000 1.00000
0.44000 0.99000 1.00000
0.55000 0.99000 1.00000
0.66000 0.99000 1.00000
0.77000 0.99000 1.00000
0.88000 0.99000 1.00000
