docs/demo/c5-story-with-voice/resources/look_warm.cube
TITLE "look_warm"
LUT_3D_SIZE 5
0.03000 0.01000 0.00000
0.29500 0.01000 0.00000
0.56000 0.01000 0.00000
0.82500 0.01000 0.00000
1.00000 0.01000 0.00000
0.03000 0.26000 0.00000
0.29500 0.26000 0.00000
0.56000 0.26000 0.00000
0.82500 0.26000 0.00000
1.00000 0.26000 0.00000
0.03000 0.51000 0.00000
0.29500 0.51000 0.00000
0.56000 0.51000 0.00000
0.82500 0.51000 0.00000
1.00000 0.51000 0.00000
0.03000 0.76000 0.00000
0.29500 0.76000 0.00000
0.56000 0.76000 0.00000
0.82500 0.76000 0.00000
1.00000 0.76000 0.00000
0.03000 1.00000 0.00000
0.29500 1.00000 0.00000
0.56000 1.00000 0.00000
0.82500 1.00000 0.00000
1.00000 1.00000 0.00000
0.03000 0.01000 0.21500
0.29500 0.01000 0.21500
0.56000 0.01000 0.21500
0.82500 0.01000 0.21500
1.00000 0.01000 0.21500
0.03000 0.26000 0.21500
0.29500 0.26000 0.21500
0.56000 0.26000 0.21500
0.82500 0.26000 0.21500
1.00000 0.26000 0.21500
0.03000 0.51000 0.21500
0.29500 0.51000 0.21500
0.56000 0.51000 0.21500
0.82500 0.51000 0.21500
1.00000 0.51000 0.21500
0.03000 0.76000 0.21500
0.29500 0.76000 0.21500
0.56000 0.76000 0.21500
0.82500 0.76000 0.21500
1.00000 0.76000 0.21500
0.03000 1.00000 0.21500
0.29500 1.00000 0.21500
0.56000 1.00000 0.21500
0.82500 1.00000 0.21500
1.00000 1.00000 0.21500
0.03000 0.01000 0.43000
0.29500 0.01000 0.43000
0.56000 0.01000 0.43000
0.82500 0.01000 0.43000
1.00000 0.01000 0.43000
0.03000 0.26000 0.43000
0.29500 0.26000 0.43000
0.56000 0.26000 0.43000
0.82500 0.26000 0.43000
1.00000 0.26000 0.43000
0.03000 0.51000 0.43000
0.29500 0.51000 0.43000
0.56000 0.51000 0.43000
0.82500 0.51000 0.43000
1.00000 0.51000 0.43000
0.03000 0.76000 0.43000
0.29500 0.76000 0.43000
0.56000 0.76000 0.43000
0.82500 0.76000 0.43000
1.00000 0.76000 0.43000
0.03000 1.00000 0.43000
0.29500 1.00000 0.43000
0.56000 1.00000 0.43000
0.82500 1.00000 0.43000
1.00000 1.00000 0.43000
0.03000 0.01000 0.64500
0.29500 0.01000 0.64500
0.56000 0.01000 0.64500
0.82500 0.01000 0.64500
1.00000 0.01000 0.64500
0.03000 0.26000 0.64500
0.29500 0.26000 0.64500
0.56000 0.26000 0.64500
0.82500 0.26000 0.64500
1.00000 0.26000 0.64500
0.03000 0.51000 0.64500
0.29500 0.51000 0.64500
0.56000 0.51000 0.64500
0.82500 0.51000 0.64500
1.00000 0.51000 0.64500
0.03000 0.76000 0.64500
0.29500 0.76000 0.64500
0.56000 0.76000 0.64500
0.82500 0.76000 0.64500
1.00000 0.76000 0.64500
0.03000 1.00000 0.64500
0.29500 1.00000 0.64500
0.56000 1.00000 0.64500
0.82500 1.00000 0.64500
1.00000 1.00000 0.64500
0.03000 0.01000 0.86000
0.29500 0.01000 0.86000
0.56000 0.01000 0.86000
0.82500 0.01000 0.86000
1.00000 0.01000 0.86000
0.03000 0.26000 0.86000
0.29500 0.26000 0.86000
0.56000 0.26000 0.86000
0.82500 0.26000 0.86000
1.00000 0.26000 0.86000
0.03000 0.51000 0.86000
0.29500 0.51000 0.86000
0.56000 0.51000 0.86000
0.82500 0.51000 0.86000
1.00000 0.51000 0.86000
0.03000 0.76000 0.86000
0.29500 0.76000 0.86000
0.56000 0.76000 0.86000
0.82500 0.76000 0.86000
1.00000 0.76000 0.86000
0.03000 1.00000 0.86000
0.29500 1.00000 0.86000
0.56000 1.00000 0.86000
0.82500 1.00000 0.86000
1.00000 1.00000 0.86000
