docs/demo/c5-story-with-voice/resources/look_warm.cube
TITLE "look_warm"
LUT_3D_SIZE 17
0.03000 0.01000 0.00000
0.09625 0.01000 0.00000
0.16250 0.01000 0.00000
0.22875 0.01000 0.00000
0.29500 0.01000 0.00000
0.36125 0.01000 0.00000
0.42750 0.01000 0.00000
0.49375 0.01000 0.00000
0.56000 0.01000 0.00000
0.62625 0.01000 0.00000
0.69250 0.01000 0.00000
0.75875 0.01000 0.00000
0.82500 0.01000 0.00000
0.89125 0.01000 0.00000
0.95750 0.01000 0.00000
1.00000 0.01000 0.00000
1.00000 0.01000 0.00000
0.03000 0.07250 0.00000
0.09625 0.07250 0.00000
0.16250 0.07250 0.00000
0.22875 0.07250 0.00000
0.29500 0.07250 0.00000
0.36125 0.07250 0.00000
0.42750 0.07250 0.00000
0.49375 0.07250 0.00000
0.56000 0.07250 0.00000
0.62625 0.07250 0.00000
0.69250 0.07250 0.00000
0.75875 0.07250 0.00000
0.82500 0.07250 0.00000
0.89125 0.07250 0.00000
0.95750 0.07250 0.00000
1.00000 0.07250 0.00000
1.00000 0.07250 0.00000
0.03000 0.13500 0.00000
0.09625 0.13500 0.00000
0.16250 0.13500 0.00000
0.22875 0.13500 0.00000
0.29500 0.13500 0.00000
0.36125 0.13500 0.00000
0.42750 0.13500 0.00000
0.49375 0.13500 0.00000
0.56000 0.13500 0.00000
0.62625 0.13500 0.00000
0.69250 0.13500 0.00000
0.75875 0.13500 0.00000
0.82500 0.13500 0.00000
0.89125 0.13500 0.00000
0.95750 0.13500 0.00000
1.00000 0.13500 0.00000
1.00000 0.13500 0.00000
0.03000 0.19750 0.00000
0.09625 0.19750 0.00000
0.16250 0.19750 0.00000
0.22875 0.19750 0.00000
0.29500 0.19750 0.00000
0.36125 0.19750 0.00000
0.42750 0.19750 0.00000
0.49375 0.19750 0.00000
0.56000 0.19750 0.00000
0.62625 0.19750 0.00000
0.69250 0.19750 0.00000
0.75875 0.19750 0.00000
0.82500 0.19750 0.00000
0.89125 0.19750 0.00000
0.95750 0.19750 0.00000
1.00000 0.19750 0.00000
1.00000 0.19750 0.00000
0.03000 0.26000 0.00000
0.09625 0.26000 0.00000
0.16250 0.26000 0.00000
0.22875 0.26000 0.00000
0.29500 0.26000 0.00000
0.36125 0.26000 0.00000
0.42750 0.26000 0.00000
0.49375 0.26000 0.00000
0.56000 0.26000 0.00000
0.62625 0.26000 0.00000
0.69250 0.26000 0.00000
0.75875 0.26000 0.00000
0.82500 0.26000 0.00000
0.89125 0.26000 0.00000
0.95750 0.26000 0.00000
1.00000 0.26000 0.00000
1.00000 0.26000 0.00000
0.03000 0.32250 0.00000
0.09625 0.32250 0.00000
0.16250 0.32250 0.00000
0.22875 0.32250 0.00000
0.29500 0.32250 0.00000
0.36125 0.32250 0.00000
0.42750 0.32250 0.00000
0.49375 0.32250 0.00000
0.56000 0.32250 0.00000
0.62625 0.32250 0.00000
0.69250 0.32250 0.00000
0.75875 0.32250 0.00000
0.82500 0.32250 0.00000
0.89125 0.32250 0.00000
0.95750 0.32250 0.00000
1.00000 0.32250 0.00000
1.00000 0.32250 0.00000
0.03000 0.38500 0.00000
0.09625 0.38500 0.00000
0.16250 0.38500 0.00000
0.22875 0.38500 0.00000
0.29500 0.38500 0.00000
0.36125 0.38500 0.00000
0.42750 0.38500 0.00000
0.49375 0.38500 0.00000
0.56000 0.38500 0.00000
0.62625 0.38500 0.00000
0.69250 0.38500 0.00000
0.75875 0.38500 0.00000
0.82500 0.38500 0.00000
0.89125 0.38500 0.00000
0.95750 0.38500 0.00000
1.00000 0.38500 0.00000
1.00000 0.38500 0.00000
0.03000 0.44750 0.00000
0.09625 0.44750 0.00000
0.16250 0.44750 0.00000
0.22875 0.44750 0.00000
0.29500 0.44750 0.00000
0.36125 0.44750 0.00000
0.42750 0.44750 0.00000
0.49375 0.44750 0.00000
0.56000 0.44750 0.00000
0.62625 0.44750 0.00000
0.69250 0.44750 0.00000
0.75875 0.44750 0.00000
0.82500 0.44750 0.00000
0.89125 0.44750 0.00000
0.95750 0.44750 0.00000
1.00000 0.44750 0.00000
1.00000 0.44750 0.00000
0.03000 0.51000 0.00000
0.09625 0.51000 0.00000
0.16250 0.51000 0.00000
0.22875 0.51000 0.00000
0.29500 0.51000 0.00000
0.36125 0.51000 0.00000
0.42750 0.51000 0.00000
0.49375 0.51000 0.00000
0.56000 0.51000 0.00000
0.62625 0.51000 0.00000
0.69250 0.51000 0.00000
0.75875 0.51000 0.00000
0.82500 0.51000 0.00000
0.89125 0.51000 0.00000
0.95750 0.51000 0.00000
1.00000 0.51000 0.00000
1.00000 0.51000 0.00000
0.03000 0.57250 0.00000
0.09625 0.57250 0.00000
0.16250 0.57250 0.00000
0.22875 0.57250 0.00000
0.29500 0.57250 0.00000
0.36125 0.57250 0.00000
0.42750 0.57250 0.00000
0.49375 0.57250 0.00000
0.56000 0.57250 0.00000
0.62625 0.57250 0.00000
0.69250 0.57250 0.00000
0.75875 0.57250 0.00000
0.82500 0.57250 0.00000
0.89125 0.57250 0.00000
0.95750 0.57250 0.00000
1.00000 0.57250 0.00000
1.00000 0.57250 0.00000
0.03000 0.63500 0.00000
0.09625 0.63500 0.00000
0.16250 0.63500 0.00000
0.22875 0.63500 0.00000
0.29500 0.63500 0.00000
0.36125 0.63500 0.00000
0.42750 0.63500 0.00000
0.49375 0.63500 0.00000
0.56000 0.63500 0.00000
0.62625 0.63500 0.00000
0.69250 0.63500 0.00000
0.75875 0.63500 0.00000
0.82500 0.63500 0.00000
0.89125 0.63500 0.00000
0.95750 0.63500 0.00000
1.00000 0.63500 0.00000
1.00000 0.63500 0.00000
0.03000 0.69750 0.00000
0.09625 0.69750 0.00000
0.16250 0.69750 0.00000
0.22875 0.69750 0.00000
0.29500 0.69750 0.00000
0.36125 0.69750 0.00000
0.42750 0.69750 0.00000
0.49375 0.69750 0.00000
0.56000 0.69750 0.00000
0.62625 0.69750 0.00000
0.69250 0.69750 0.00000
0.75875 0.69750 0.00000
0.82500 0.69750 0.00000
0.89125 0.69750 0.00000
0.95750 0.69750 0.00000
1.00000 0.69750 0.00000
1.00000 0.69750 0.00000
0.03000 0.76000 0.00000
0.09625 0.76000 0.00000
0.16250 0.76000 0.00000
0.22875 0.76000 0.00000
0.29500 0.76000 0.00000
0.36125 0.76000 0.00000
0.42750 0.76000 0.00000
0.49375 0.76000 0.00000
0.56000 0.76000 0.00000
0.62625 0.76000 0.00000
0.69250 0.76000 0.00000
0.75875 0.76000 0.00000
0.82500 0.76000 0.00000
0.89125 0.76000 0.00000
0.95750 0.76000 0.00000
1.00000 0.76000 0.00000
1.00000 0.76000 0.00000
0.03000 0.82250 0.00000
0.09625 0.82250 0.00000
0.16250 0.82250 0.00000
0.22875 0.82250 0.00000
0.29500 0.82250 0.00000
0.36125 0.82250 0.00000
0.42750 0.82250 0.00000
0.49375 0.82250 0.00000
0.56000 0.82250 0.00000
0.62625 0.82250 0.00000
0.69250 0.82250 0.00000
0.75875 0.82250 0.00000
0.82500 0.82250 0.00000
0.89125 0.82250 0.00000
0.95750 0.82250 0.00000
1.00000 0.82250 0.00000
1.00000 0.82250 0.00000
0.03000 0.88500 0.00000
0.09625 0.88500 0.00000
0.16250 0.88500 0.00000
0.22875 0.88500 0.00000
0.29500 0.88500 0.00000
0.36125 0.88500 0.00000
0.42750 0.88500 0.00000
0.49375 0.88500 0.00000
0.56000 0.88500 0.00000
0.62625 0.88500 0.00000
0.69250 0.88500 0.00000
0.75875 0.88500 0.00000
0.82500 0.88500 0.00000
0.89125 0.88500 0.00000
0.95750 0.88500 0.00000
1.00000 0.88500 0.00000
1.00000 0.88500 0.00000
0.03000 0.94750 0.00000
0.09625 0.94750 0.00000
0.16250 0.94750 0.00000
0.22875 0.94750 0.00000
0.29500 0.94750 0.00000
0.36125 0.94750 0.00000
0.42750 0.94750 0.00000
0.49375 0.94750 0.00000
0.56000 0.94750 0.00000
0.62625 0.94750 0.00000
0.69250 0.94750 0.00000
0.75875 0.94750 0.00000
0.82500 0.94750 0.00000
0.89125 0.94750 0.00000
0.95750 0.94750 0.00000
1.00000 0.94750 0.00000
1.00000 0.94750 0.00000
0.03000 1.00000 0.00000
0.09625 1.00000 0.00000
0.16250 1.00000 0.00000
0.22875 1.00000 0.00000
0.29500 1.00000 0.00000
0.36125 1.00000 0.00000
0.42750 1.00000 0.00000
0.49375 1.00000 0.00000
0.56000 1.00000 0.00000
0.62625 1.00000 0.00000
0.69250 1.00000 0.00000
0.75875 1.00000 0.00000
0.82500 1.00000 0.00000
0.89125 1.00000 0.00000
0.95750 1.00000 0.00000
1.00000 1.00000 0.00000
1.00000 1.00000 0.00000
0.03000 0.01000 0.05375
0.09625 0.01000 0.05375
0.16250 0.01000 0.05375
0.22875 0.01000 0.05375
0.29500 0.01000 0.05375
0.36125 0.01000 0.05375
0.42750 0.01000 0.05375
0.49375 0.01000 0.05375
0.56000 0.01000 0.05375
0.62625 0.01000 0.05375
0.69250 0.01000 0.05375
0.75875 0.01000 0.05375
0.82500 0.01000 0.05375
0.89125 0.01000 0.05375
0.95750 0.01000 0.05375
1.00000 0.01000 0.05375
1.00000 0.01000 0.05375
0.03000 0.07250 0.05375
0.09625 0.07250 0.05375
0.16250 0.07250 0.05375
0.22875 0.07250 0.05375
0.29500 0.07250 0.05375
0.36125 0.07250 0.05375
0.42750 0.07250 0.05375
0.49375 0.07250 0.05375
0.56000 0.07250 0.05375
0.62625 0.07250 0.05375
0.69250 0.07250 0.05375
0.75875 0.07250 0.05375
0.82500 0.07250 0.05375
0.89125 0.07250 0.05375
0.95750 0.07250 0.05375
1.00000 0.07250 0.05375
1.00000 0.07250 0.05375
0.03000 0.13500 0.05375
0.09625 0.13500 0.05375
0.16250 0.13500 0.05375
0.22875 0.13500 0.05375
0.29500 0.13500 0.05375
0.36125 0.13500 0.05375
0.42750 0.13500 0.05375
0.49375 0.13500 0.05375
0.56000 0.13500 0.05375
0.62625 0.13500 0.05375
0.69250 0.13500 0.05375
0.75875 0.13500 0.05375
0.82500 0.13500 0.05375
0.89125 0.13500 0.05375
0.95750 0.13500 0.05375
1.00000 0.13500 0.05375
1.00000 0.13500 0.05375
0.03000 0.19750 0.05375
0.09625 0.19750 0.05375
0.16250 0.19750 0.05375
0.22875 0.19750 0.05375
0.29500 0.19750 0.05375
0.36125 0.19750 0.05375
0.42750 0.19750 0.05375
0.49375 0.19750 0.05375
0.56000 0.19750 0.05375
0.62625 0.19750 0.05375
0.69250 0.19750 0.05375
0.75875 0.19750 0.05375
0.82500 0.19750 0.05375
0.89125 0.19750 0.05375
0.95750 0.19750 0.05375
1.00000 0.19750 0.05375
1.00000 0.19750 0.05375
0.03000 0.26000 0.05375
0.09625 0.26000 0.05375
0.16250 0.26000 0.05375
0.22875 0.26000 0.05375
0.29500 0.26000 0.05375
0.36125 0.26000 0.05375
0.42750 0.26000 0.05375
0.49375 0.26000 0.05375
0.56000 0.26000 0.05375
0.62625 0.26000 0.05375
0.69250 0.26000 0.05375
0.75875 0.26000 0.05375
0.82500 0.26000 0.05375
0.89125 0.26000 0.05375
0.95750 0.26000 0.05375
1.00000 0.26000 0.05375
1.00000 0.26000 0.05375
0.03000 0.32250 0.05375
0.09625 0.32250 0.05375
0.16250 0.32250 0.05375
0.22875 0.32250 0.05375
0.29500 0.32250 0.05375
0.36125 0.32250 0.05375
0.42750 0.32250 0.05375
0.49375 0.32250 0.05375
0.56000 0.32250 0.05375
0.62625 0.32250 0.05375
0.69250 0.32250 0.05375
0.75875 0.32250 0.05375
0.82500 0.32250 0.05375
0.89125 0.32250 0.05375
0.95750 0.32250 0.05375
1.00000 0.32250 0.05375
1.00000 0.32250 0.05375
0.03000 0.38500 0.05375
0.09625 0.38500 0.05375
0.16250 0.38500 0.05375
0.22875 0.38500 0.05375
0.29500 0.38500 0.05375
0.36125 0.38500 0.05375
0.42750 0.38500 0.05375
0.49375 0.38500 0.05375
0.56000 0.38500 0.05375
0.62625 0.38500 0.05375
0.69250 0.38500 0.05375
0.75875 0.38500 0.05375
0.82500 0.38500 0.05375
0.89125 0.38500 0.05375
0.95750 0.38500 0.05375
1.00000 0.38500 0.05375
1.00000 0.38500 0.05375
0.03000 0.44750 0.05375
0.09625 0.44750 0.05375
0.16250 0.44750 0.05375
0.22875 0.44750 0.05375
0.29500 0.44750 0.05375
0.36125 0.44750 0.05375
0.42750 0.44750 0.05375
0.49375 0.44750 0.05375
0.56000 0.44750 0.05375
0.62625 0.44750 0.05375
0.69250 0.44750 0.05375
0.75875 0.44750 0.05375
0.82500 0.44750 0.05375
0.89125 0.44750 0.05375
0.95750 0.44750 0.05375
1.00000 0.44750 0.05375
1.00000 0.44750 0.05375
0.03000 0.51000 0.05375
0.09625 0.51000 0.05375
0.16250 0.51000 0.05375
0.22875 0.51000 0.05375
0.29500 0.51000 0.05375
0.36125 0.51000 0.05375
0.42750 0.51000 0.05375
0.49375 0.51000 0.05375
0.56000 0.51000 0.05375
0.62625 0.51000 0.05375
0.69250 0.51000 0.05375
0.75875 0.51000 0.05375
0.82500 0.51000 0.05375
0.89125 0.51000 0.05375
0.95750 0.51000 0.05375
1.00000 0.51000 0.05375
1.00000 0.51000 0.05375
0.03000 0.57250 0.05375
0.09625 0.57250 0.05375
0.16250 0.57250 0.05375
0.22875 0.57250 0.05375
0.29500 0.57250 0.05375
0.36125 0.57250 0.05375
0.42750 0.57250 0.05375
0.49375 0.57250 0.05375
0.56000 0.57250 0.05375
0.62625 0.57250 0.05375
0.69250 0.57250 0.05375
0.75875 0.57250 0.05375
0.82500 0.57250 0.05375
0.89125 0.57250 0.05375
0.95750 0.57250 0.05375
1.00000 0.57250 0.05375
1.00000 0.57250 0.05375
0.03000 0.63500 0.05375
0.09625 0.63500 0.05375
0.16250 0.63500 0.05375
0.22875 0.63500 0.05375
0.29500 0.63500 0.05375
0.36125 0.63500 0.05375
0.42750 0.63500 0.05375
0.49375 0.63500 0.05375
0.56000 0.63500 0.05375
0.62625 0.63500 0.05375
0.69250 0.63500 0.05375
0.75875 0.63500 0.05375
0.82500 0.63500 0.05375
0.89125 0.63500 0.05375
0.95750 0.63500 0.05375
1.00000 0.63500 0.05375
1.00000 0.63500 0.05375
0.03000 0.69750 0.05375
0.09625 0.69750 0.05375
0.16250 0.69750 0.05375
0.22875 0.69750 0.05375
0.29500 0.69750 0.05375
0.36125 0.69750 0.05375
0.42750 0.69750 0.05375
0.49375 0.69750 0.05375
0.56000 0.69750 0.05375
0.62625 0.69750 0.05375
0.69250 0.69750 0.05375
0.75875 0.69750 0.05375
0.82500 0.69750 0.05375
0.89125 0.69750 0.05375
0.95750 0.69750 0.05375
1.00000 0.69750 0.05375
1.00000 0.69750 0.05375
0.03000 0.76000 0.05375
0.09625 0.76000 0.05375
0.16250 0.76000 0.05375
0.22875 0.76000 0.05375
0.29500 0.76000 0.05375
0.36125 0.76000 0.05375
0.42750 0.76000 0.05375
0.49375 0.76000 0.05375
0.56000 0.76000 0.05375
0.62625 0.76000 0.05375
0.69250 0.76000 0.05375
0.75875 0.76000 0.05375
0.82500 0.76000 0.05375
0.89125 0.76000 0.05375
0.95750 0.76000 0.05375
1.00000 0.76000 0.05375
1.00000 0.76000 0.05375
0.03000 0.82250 0.05375
0.09625 0.82250 0.05375
0.16250 0.82250 0.05375
0.22875 0.82250 0.05375
0.29500 0.82250 0.05375
0.36125 0.82250 0.05375
0.42750 0.82250 0.05375
0.49375 0.82250 0.05375
0.56000 0.82250 0.05375
0.62625 0.82250 0.05375
0.69250 0.82250 0.05375
0.75875 0.82250 0.05375
0.82500 0.82250 0.05375
0.89125 0.82250 0.05375
0.95750 0.82250 0.05375
1.00000 0.82250 0.05375
1.00000 0.82250 0.05375
0.03000 0.88500 0.05375
0.09625 0.88500 0.05375
0.16250 0.88500 0.05375
0.22875 0.88500 0.05375
0.29500 0.88500 0.05375
0.36125 0.88500 0.05375
0.42750 0.88500 0.05375
0.49375 0.88500 0.05375
0.56000 0.88500 0.05375
0.62625 0.88500 0.05375
0.69250 0.88500 0.05375
0.75875 0.88500 0.05375
0.82500 0.88500 0.05375
0.89125 0.88500 0.05375
0.95750 0.88500 0.05375
1.00000 0.88500 0.05375
1.00000 0.88500 0.05375
0.03000 0.94750 0.05375
0.09625 0.94750 0.05375
0.16250 0.94750 0.05375
0.22875 0.94750 0.05375
0.29500 0.94750 0.05375
0.36125 0.94750 0.05375
0.42750 0.94750 0.05375
0.49375 0.94750 0.05375
0.56000 0.94750 0.05375
0.62625 0.94750 0.05375
0.69250 0.94750 0.05375
0.75875 0.94750 0.05375
0.82500 0.94750 0.05375
0.89125 0.94750 0.05375
0.95750 0.94750 0.05375
1.00000 0.94750 0.05375
1.00000 0.94750 0.05375
0.03000 1.00000 0.05375
0.09625 1.00000 0.05375
0.16250 1.00000 0.05375
0.22875 1.00000 0.05375
0.29500 1.00000 0.05375
0.36125 1.00000 0.05375
0.42750 1.00000 0.05375
0.49375 1.00000 0.05375
0.56000 1.00000 0.05375
0.62625 1.00000 0.05375
0.69250 1.00000 0.05375
0.75875 1.00000 0.05375
0.82500 1.00000 0.05375
0.89125 1.00000 0.05375
0.95750 1.00000 0.05375
1.00000 1.00000 0.05375
1.00000 1.00000 0.05375
0.03000 0.01000 0.10750
0.09625 0.01000 0.10750
0.16250 0.01000 0.10750
0.22875 0.01000 0.10750
0.29500 0.01000 0.10750
0.36125 0.01000 0.10750
0.42750 0.01000 0.10750
0.49375 0.01000 0.10750
0.56000 0.01000 0.10750
0.62625 0.01000 0.10750
0.69250 0.01000 0.10750
0.75875 0.01000 0.10750
0.82500 0.01000 0.10750
0.89125 0.01000 0.10750
0.95750 0.01000 0.10750
1.00000 0.01000 0.10750
1.00000 0.01000 0.10750
0.03000 0.07250 0.10750
0.09625 0.07250 0.10750
0.16250 0.07250 0.10750
0.22875 0.07250 0.10750
0.29500 0.07250 0.10750
0.36125 0.07250 0.10750
0.42750 0.07250 0.10750
0.49375 0.07250 0.10750
0.56000 0.07250 0.10750
0.62625 0.07250 0.10750
0.69250 0.07250 0.10750
0.75875 0.07250 0.10750
0.82500 0.07250 0.10750
0.89125 0.07250 0.10750
0.95750 0.07250 0.10750
1.00000 0.07250 0.10750
1.00000 0.07250 0.10750
0.03000 0.13500 0.10750
0.09625 0.13500 0.10750
0.16250 0.13500 0.10750
0.22875 0.13500 0.10750
0.29500 0.13500 0.10750
0.36125 0.13500 0.10750
0.42750 0.13500 0.10750
0.49375 0.13500 0.10750
0.56000 0.13500 0.10750
0.62625 0.13500 0.10750
0.69250 0.13500 0.10750
0.75875 0.13500 0.10750
0.82500 0.13500 0.10750
0.89125 0.13500 0.10750
0.95750 0.13500 0.10750
1.00000 0.13500 0.10750
1.00000 0.13500 0.10750
0.03000 0.19750 0.10750
0.09625 0.19750 0.10750
0.16250 0.19750 0.10750
0.22875 0.19750 0.10750
0.29500 0.19750 0.10750
0.36125 0.19750 0.10750
0.42750 0.19750 0.10750
0.49375 0.19750 0.10750
0.56000 0.19750 0.10750
0.62625 0.19750 0.10750
0.69250 0.19750 0.10750
0.75875 0.19750 0.10750
0.82500 0.19750 0.10750
0.89125 0.19750 0.10750
0.95750 0.19750 0.10750
1.00000 0.19750 0.10750
1.00000 0.19750 0.10750
0.03000 0.26000 0.10750
0.09625 0.26000 0.10750
0.16250 0.26000 0.10750
0.22875 0.26000 0.10750
0.29500 0.26000 0.10750
0.36125 0.26000 0.10750
0.42750 0.26000 0.10750
0.49375 0.26000 0.10750
0.56000 0.26000 0.10750
0.62625 0.26000 0.10750
0.69250 0.26000 0.10750
0.75875 0.26000 0.10750
0.82500 0.26000 0.10750
0.89125 0.26000 0.10750
0.95750 0.26000 0.10750
1.00000 0.26000 0.10750
1.00000 0.26000 0.10750
0.03000 0.32250 0.10750
0.09625 0.32250 0.10750
0.16250 0.32250 0.10750
0.22875 0.32250 0.10750
0.29500 0.32250 0.10750
0.36125 0.32250 0.10750
0.42750 0.32250 0.10750
0.49375 0.32250 0.10750
0.56000 0.32250 0.10750
0.62625 0.32250 0.10750
0.69250 0.32250 0.10750
0.75875 0.32250 0.10750
0.82500 0.32250 0.10750
0.89125 0.32250 0.10750
0.95750 0.32250 0.10750
1.00000 0.32250 0.10750
1.00000 0.32250 0.10750
0.03000 0.38500 0.10750
0.09625 0.38500 0.10750
0.16250 0.38500 0.10750
0.22875 0.38500 0.10750
0.29500 0.38500 0.10750
0.36125 0.38500 0.10750
0.42750 0.38500 0.10750
0.49375 0.38500 0.10750
0.56000 0.38500 0.10750
0.62625 0.38500 0.10750
0.69250 0.38500 0.10750
0.75875 0.38500 0.10750
0.82500 0.38500 0.10750
0.89125 0.38500 0.10750
0.95750 0.38500 0.10750
1.00000 0.38500 0.10750
1.00000 0.38500 0.10750
0.03000 0.44750 0.10750
0.09625 0.44750 0.10750
0.16250 0.44750 0.10750
0.22875 0.44750 0.10750
0.29500 0.44750 0.10750
0.36125 0.44750 0.10750
0.42750 0.44750 0.10750
0.49375 0.44750 0.10750
0.56000 0.44750 0.10750
0.62625 0.44750 0.10750
0.69250 0.44750 0.10750
0.75875 0.44750 0.10750
0.82500 0.44750 0.10750
0.89125 0.44750 0.10750
0.95750 0.44750 0.10750
1.00000 0.44750 0.10750
1.00000 0.44750 0.10750
0.03000 0.51000 0.10750
0.09625 0.51000 0.10750
0.16250 0.51000 0.10750
0.22875 0.51000 0.10750
0.29500 0.51000 0.10750
0.36125 0.51000 0.10750
0.42750 0.51000 0.10750
0.49375 0.51000 0.10750
0.56000 0.51000 0.10750
0.62625 0.51000 0.10750
0.69250 0.51000 0.10750
0.75875 0.51000 0.10750
0.82500 0.51000 0.10750
0.89125 0.51000 0.10750
0.95750 0.51000 0.10750
1.00000 0.51000 0.10750
1.00000 0.51000 0.10750
0.03000 0.57250 0.10750
0.09625 0.57250 0.10750
0.16250 0.57250 0.10750
0.22875 0.57250 0.10750
0.29500 0.57250 0.10750
0.36125 0.57250 0.10750
0.42750 0.57250 0.10750
0.49375 0.57250 0.10750
0.56000 0.57250 0.10750
0.62625 0.57250 0.10750
0.69250 0.57250 0.10750
0.75875 0.57250 0.10750
0.82500 0.57250 0.10750
0.89125 0.57250 0.10750
0.95750 0.57250 0.10750
1.00000 0.57250 0.10750
1.00000 0.57250 0.10750
0.03000 0.63500 0.10750
0.09625 0.63500 0.10750
0.16250 0.63500 0.10750
0.22875 0.63500 0.10750
0.29500 0.63500 0.10750
0.36125 0.63500 0.10750
0.42750 0.63500 0.10750
0.49375 0.63500 0.10750
0.56000 0.63500 0.10750
0.62625 0.63500 0.10750
0.69250 0.63500 0.10750
0.75875 0.63500 0.10750
0.82500 0.63500 0.10750
0.89125 0.63500 0.10750
0.95750 0.63500 0.10750
1.00000 0.63500 0.10750
1.00000 0.63500 0.10750
0.03000 0.69750 0.10750
0.09625 0.69750 0.10750
0.16250 0.69750 0.10750
0.22875 0.69750 0.10750
0.29500 0.69750 0.10750
0.36125 0.69750 0.10750
0.42750 0.69750 0.10750
0.49375 0.69750 0.10750
0.56000 0.69750 0.10750
0.62625 0.69750 0.10750
0.69250 0.69750 0.10750
0.75875 0.69750 0.10750
0.82500 0.69750 0.10750
0.89125 0.69750 0.10750
0.95750 0.69750 0.10750
1.00000 0.69750 0.10750
1.00000 0.69750 0.10750
0.03000 0.76000 0.10750
0.09625 0.76000 0.10750
0.16250 0.76000 0.10750
0.22875 0.76000 0.10750
0.29500 0.76000 0.10750
0.36125 0.76000 0.10750
0.42750 0.76000 0.10750
0.49375 0.76000 0.10750
0.56000 0.76000 0.10750
0.62625 0.76000 0.10750
0.69250 0.76000 0.10750
0.75875 0.76000 0.10750
0.82500 0.76000 0.10750
0.89125 0.76000 0.10750
0.95750 0.76000 0.10750
1.00000 0.76000 0.10750
1.00000 0.76000 0.10750
0.03000 0.82250 0.10750
0.09625 0.82250 0.10750
0.16250 0.82250 0.10750
0.22875 0.82250 0.10750
0.29500 0.82250 0.10750
0.36125 0.82250 0.10750
0.42750 0.82250 0.10750
0.49375 0.82250 0.10750
0.56000 0.82250 0.10750
0.62625 0.82250 0.10750
0.69250 0.82250 0.10750
0.75875 0.82250 0.10750
0.82500 0.82250 0.10750
0.89125 0.82250 0.10750
0.95750 0.82250 0.10750
1.00000 0.82250 0.10750
1.00000 0.82250 0.10750
0.03000 0.88500 0.10750
0.09625 0.88500 0.10750
0.16250 0.88500 0.10750
0.22875 0.88500 0.10750
0.29500 0.88500 0.10750
0.36125 0.88500 0.10750
0.42750 0.88500 0.10750
0.49375 0.88500 0.10750
0.56000 0.88500 0.10750
0.62625 0.88500 0.10750
0.69250 0.88500 0.10750
0.75875 0.88500 0.10750
0.82500 0.88500 0.10750
0.89125 0.88500 0.10750
0.95750 0.88500 0.10750
1.00000 0.88500 0.10750
1.00000 0.88500 0.10750
0.03000 0.94750 0.10750
0.09625 0.94750 0.10750
0.16250 0.94750 0.10750
0.22875 0.94750 0.10750
0.29500 0.94750 0.10750
0.36125 0.94750 0.10750
0.42750 0.94750 0.10750
0.49375 0.94750 0.10750
0.56000 0.94750 0.10750
0.62625 0.94750 0.10750
0.69250 0.94750 0.10750
0.75875 0.94750 0.10750
0.82500 0.94750 0.10750
0.89125 0.94750 0.10750
0.95750 0.94750 0.10750
1.00000 0.94750 0.10750
1.00000 0.94750 0.10750
0.03000 1.00000 0.10750
0.09625 1.00000 0.10750
0.16250 1.00000 0.10750
0.22875 1.00000 0.10750
0.29500 1.00000 0.10750
0.36125 1.00000 0.10750
0.42750 1.00000 0.10750
0.49375 1.00000 0.10750
0.56000 1.00000 0.10750
0.62625 1.00000 0.10750
0.69250 1.00000 0.10750
0.75875 1.00000 0.10750
0.82500 1.00000 0.10750
0.89125 1.00000 0.10750
0.95750 1.00000 0.10750
1.00000 1.00000 0.10750
1.00000 1.00000 0.10750
0.03000 0.01000 0.16125
0.09625 0.01000 0.16125
0.16250 0.01000 0.16125
0.22875 0.01000 0.16125
0.29500 0.01000 0.16125
0.36125 0.01000 0.16125
0.42750 0.01000 0.16125
0.49375 0.01000 0.16125
0.56000 0.01000 0.16125
0.62625 0.01000 0.16125
0.69250 0.01000 0.16125
0.75875 0.01000 0.16125
0.82500 0.01000 0.16125
0.89125 0.01000 0.16125
0.95750 0.01000 0.16125
1.00000 0.01000 0.16125
1.00000 0.01000 0.16125
0.03000 0.07250 0.16125
0.09625 0.07250 0.16125
0.16250 0.07250 0.16125
0.22875 0.07250 0.16125
0.29500 0.07250 0.16125
0.36125 0.07250 0.16125
0.42750 0.07250 0.16125
0.49375 0.07250 0.16125
0.56000 0.07250 0.16125
0.62625 0.07250 0.16125
0.69250 0.07250 0.16125
0.75875 0.07250 0.16125
0.82500 0.07250 0.16125
0.89125 0.07250 0.16125
0.95750 0.07250 0.16125
1.00000 0.07250 0.16125
