docs/demo/c5-story-with-voice/resources/look_warm.cube
TITLE "look_warm"
LUT_3D_SIZE 9
0.03000 0.01000 0.00000
0.16250 0.01000 0.00000
0.29500 0.01000 0.00000
0.42750 0.01000 0.00000
0.56000 0.01000 0.00000
0.69250 0.01000 0.00000
0.82500 0.01000 0.00000
0.95750 0.01000 0.00000
1.00000 0.01000 0.00000
0.03000 0.13500 0.00000
0.16250 0.13500 0.00000
0.29500 0.13500 0.00000
0.42750 0.13500 0.00000
0.56000 0.13500 0.00000
0.69250 0.13500 0.00000
0.82500 0.13500 0.00000
0.95750 0.13500 0.00000
1.00000 0.13500 0.00000
0.03000 0.26000 0.00000
0.16250 0.26000 0.00000
0.29500 0.26000 0.00000
0.42750 0.26000 0.00000
0.56000 0.26000 0.00000
0.69250 0.26000 0.00000
0.82500 0.26000 0.00000
0.95750 0.26000 0.00000
1.00000 0.26000 0.00000
0.03000 0.38500 0.00000
0.16250 0.38500 0.00000
0.29500 0.38500 0.00000
0.42750 0.38500 0.00000
0.56000 0.38500 0.00000
0.69250 0.38500 0.00000
0.82500 0.38500 0.00000
0.95750 0.38500 0.00000
1.00000 0.38500 0.00000
0.03000 0.51000 0.00000
0.16250 0.51000 0.00000
0.29500 0.51000 0.00000
0.42750 0.51000 0.00000
0.56000 0.51000 0.00000
0.69250 0.51000 0.00000
0.82500 0.51000 0.00000
0.95750 0.51000 0.00000
1.00000 0.51000 0.00000
0.03000 0.63500 0.00000
0.16250 0.63500 0.00000
0.29500 0.63500 0.00000
0.42750 0.63500 0.00000
0.56000 0.63500 0.00000
0.69250 0.63500 0.00000
0.82500 0.63500 0.00000
0.95750 0.63500 0.00000
1.00000 0.63500 0.00000
0.03000 0.76000 0.00000
0.16250 0.76000 0.00000
0.29500 0.76000 0.00000
0.42750 0.76000 0.00000
0.56000 0.76000 0.00000
0.69250 0.76000 0.00000
0.82500 0.76000 0.00000
0.95750 0.76000 0.00000
1.00000 0.76000 0.00000
0.03000 0.88500 0.00000
0.16250 0.88500 0.00000
0.29500 0.88500 0.00000
0.42750 0.88500 0.00000
0.56000 0.88500 0.00000
0.69250 0.88500 0.00000
0.82500 0.88500 0.00000
0.95750 0.88500 0.00000
1.00000 0.88500 0.00000
0.03000 1.00000 0.00000
0.16250 1.00000 0.00000
0.29500 1.00000 0.00000
0.42750 1.00000 0.00000
0.56000 1.00000 0.00000
0.69250 1.00000 0.00000
0.82500 1.00000 0.00000
0.95750 1.00000 0.00000
1.00000 1.00000 0.00000
0.03000 0.01000 0.10750
0.16250 0.01000 0.10750
0.29500 0.01000 0.10750
0.42750 0.01000 0.10750
0.56000 0.01000 0.10750
0.69250 0.01000 0.10750
0.82500 0.01000 0.10750
0.95750 0.01000 0.10750
1.00000 0.01000 0.10750
0.03000 0.13500 0.10750
0.16250 0.13500 0.10750
0.29500 0.13500 0.10750
0.42750 0.13500 0.10750
0.56000 0.13500 0.10750
0.69250 0.13500 0.10750
0.82500 0.13500 0.10750
0.95750 0.13500 0.10750
1.00000 0.13500 0.10750
0.03000 0.26000 0.10750
0.16250 0.26000 0.10750
0.29500 0.26000 0.10750
0.42750 0.26000 0.10750
0.56000 0.26000 0.10750
0.69250 0.26000 0.10750
0.82500 0.26000 0.10750
0.95750 0.26000 0.10750
1.00000 0.26000 0.10750
0.03000 0.38500 0.10750
0.16250 0.38500 0.10750
0.29500 0.38500 0.10750
0.42750 0.38500 0.10750
0.56000 0.38500 0.10750
0.69250 0.38500 0.10750
0.82500 0.38500 0.10750
0.95750 0.38500 0.10750
1.00000 0.38500 0.10750
0.03000 0.51000 0.10750
0.16250 0.51000 0.10750
0.29500 0.51000 0.10750
0.42750 0.51000 0.10750
0.56000 0.51000 0.10750
0.69250 0.51000 0.10750
0.82500 0.51000 0.10750
0.95750 0.51000 0.10750
1.00000 0.51000 0.10750
0.03000 0.63500 0.10750
0.16250 0.63500 0.10750
0.29500 0.63500 0.10750
0.42750 0.63500 0.10750
0.56000 0.63500 0.10750
0.69250 0.63500 0.10750
0.82500 0.63500 0.10750
0.95750 0.63500 0.10750
1.00000 0.63500 0.10750
0.03000 0.76000 0.10750
0.16250 0.76000 0.10750
0.29500 0.76000 0.10750
0.42750 0.76000 0.10750
0.56000 0.76000 0.10750
0.69250 0.76000 0.10750
0.82500 0.76000 0.10750
0.95750 0.76000 0.10750
1.00000 0.76000 0.10750
0.03000 0.88500 0.10750
0.16250 0.88500 0.10750
0.29500 0.88500 0.10750
0.42750 0.88500 0.10750
0.56000 0.88500 0.10750
0.69250 0.88500 0.10750
0.82500 0.88500 0.10750
0.95750 0.88500 0.10750
1.00000 0.88500 0.10750
0.03000 1.00000 0.10750
0.16250 1.00000 0.10750
0.29500 1.00000 0.10750
0.42750 1.00000 0.10750
0.56000 1.00000 0.10750
0.69250 1.00000 0.10750
0.82500 1.00000 0.10750
0.95750 1.00000 0.10750
1.00000 1.00000 0.10750
0.03000 0.01000 0.21500
0.16250 0.01000 0.21500
0.29500 0.01000 0.21500
0.42750 0.01000 0.21500
0.56000 0.01000 0.21500
0.69250 0.01000 0.21500
0.82500 0.01000 0.21500
0.95750 0.01000 0.21500
1.00000 0.01000 0.21500
0.03000 0.13500 0.21500
0.16250 0.13500 0.21500
0.29500 0.13500 0.21500
0.42750 0.13500 0.21500
0.56000 0.13500 0.21500
0.69250 0.13500 0.21500
0.82500 0.13500 0.21500
0.95750 0.13500 0.21500
1.00000 0.13500 0.21500
0.03000 0.26000 0.21500
0.16250 0.26000 0.21500
0.29500 0.26000 0.21500
0.42750 0.26000 0.21500
0.56000 0.26000 0.21500
0.69250 0.26000 0.21500
0.82500 0.26000 0.21500
0.95750 0.26000 0.21500
1.00000 0.26000 0.21500
0.03000 0.38500 0.21500
0.16250 0.38500 0.21500
0.29500 0.38500 0.21500
0.42750 0.38500 0.21500
0.56000 0.38500 0.21500
0.69250 0.38500 0.21500
0.82500 0.38500 0.21500
0.95750 0.38500 0.21500
1.00000 0.38500 0.21500
0.03000 0.51000 0.21500
0.16250 0.51000 0.21500
0.29500 0.51000 0.21500
0.42750 0.51000 0.21500
0.56000 0.51000 0.21500
0.69250 0.51000 0.21500
0.82500 0.51000 0.21500
0.95750 0.51000 0.21500
1.00000 0.51000 0.21500
0.03000 0.63500 0.21500
0.16250 0.63500 0.21500
0.29500 0.63500 0.21500
0.42750 0.63500 0.21500
0.56000 0.63500 0.21500
0.69250 0.63500 0.21500
0.82500 0.63500 0.21500
0.95750 0.63500 0.21500
1.00000 0.63500 0.21500
0.03000 0.76000 0.21500
0.16250 0.76000 0.21500
0.29500 0.76000 0.21500
0.42750 0.76000 0.21500
0.56000 0.76000 0.21500
0.69250 0.76000 0.21500
0.82500 0.76000 0.21500
0.95750 0.76000 0.21500
1.00000 0.76000 0.21500
0.03000 0.88500 0.21500
0.16250 0.88500 0.21500
0.29500 0.88500 0.21500
0.42750 0.88500 0.21500
0.56000 0.88500 0.21500
0.69250 0.88500 0.21500
0.82500 0.88500 0.21500
0.95750 0.88500 0.21500
1.00000 0.88500 0.21500
0.03000 1.00000 0.21500
0.16250 1.00000 0.21500
0.29500 1.00000 0.21500
0.42750 1.00000 0.21500
0.56000 1.00000 0.21500
0.69250 1.00000 0.21500
0.82500 1.00000 0.21500
0.95750 1.00000 0.21500
1.00000 1.00000 0.21500
0.03000 0.01000 0.32250
0.16250 0.01000 0.32250
0.29500 0.01000 0.32250
0.42750 0.01000 0.32250
0.56000 0.01000 0.32250
0.69250 0.01000 0.32250
0.82500 0.01000 0.32250
0.95750 0.01000 0.32250
1.00000 0.01000 0.32250
0.03000 0.13500 0.32250
0.16250 0.13500 0.32250
0.29500 0.13500 0.32250
0.42750 0.13500 0.32250
0.56000 0.13500 0.32250
0.69250 0.13500 0.32250
0.82500 0.13500 0.32250
0.95750 0.13500 0.32250
1.00000 0.13500 0.32250
0.03000 0.26000 0.32250
0.16250 0.26000 0.32250
0.29500 0.26000 0.32250
0.42750 0.26000 0.32250
0.56000 0.26000 0.32250
0.69250 0.26000 0.32250
0.82500 0.26000 0.32250
0.95750 0.26000 0.32250
1.00000 0.26000 0.32250
0.03000 0.38500 0.32250
0.16250 0.38500 0.32250
0.29500 0.38500 0.32250
0.42750 0.38500 0.32250
0.56000 0.38500 0.32250
0.69250 0.38500 0.32250
0.82500 0.38500 0.32250
0.95750 0.38500 0.32250
1.00000 0.38500 0.32250
0.03000 0.51000 0.32250
0.16250 0.51000 0.32250
0.29500 0.51000 0.32250
0.42750 0.51000 0.32250
0.56000 0.51000 0.32250
0.69250 0.51000 0.32250
0.82500 0.51000 0.32250
0.95750 0.51000 0.32250
1.00000 0.51000 0.32250
0.03000 0.63500 0.32250
0.16250 0.63500 0.32250
0.29500 0.63500 0.32250
0.42750 0.63500 0.32250
0.56000 0.63500 0.32250
0.69250 0.63500 0.32250
0.82500 0.63500 0.32250
0.95750 0.63500 0.32250
1.00000 0.63500 0.32250
0.03000 0.76000 0.32250
0.16250 0.76000 0.32250
0.29500 0.76000 0.32250
0.42750 0.76000 0.32250
0.56000 0.76000 0.32250
0.69250 0.76000 0.32250
0.82500 0.76000 0.32250
0.95750 0.76000 0.32250
1.00000 0.76000 0.32250
0.03000 0.88500 0.32250
0.16250 0.88500 0.32250
0.29500 0.88500 0.32250
0.42750 0.88500 0.32250
0.56000 0.88500 0.32250
0.69250 0.88500 0.32250
0.82500 0.88500 0.32250
0.95750 0.88500 0.32250
1.00000 0.88500 0.32250
0.03000 1.00000 0.32250
0.16250 1.00000 0.32250
0.29500 1.00000 0.32250
0.42750 1.00000 0.32250
0.56000 1.00000 0.32250
0.69250 1.00000 0.32250
0.82500 1.00000 0.32250
0.95750 1.00000 0.32250
1.00000 1.00000 0.32250
0.03000 0.01000 0.43000
0.16250 0.01000 0.43000
0.29500 0.01000 0.43000
0.42750 0.01000 0.43000
0.56000 0.01000 0.43000
0.69250 0.01000 0.43000
0.82500 0.01000 0.43000
0.95750 0.01000 0.43000
1.00000 0.01000 0.43000
0.03000 0.13500 0.43000
0.16250 0.13500 0.43000
0.29500 0.13500 0.43000
0.42750 0.13500 0.43000
0.56000 0.13500 0.43000
0.69250 0.13500 0.43000
0.82500 0.13500 0.43000
0.95750 0.13500 0.43000
1.00000 0.13500 0.43000
0.03000 0.26000 0.43000
0.16250 0.26000 0.43000
0.29500 0.26000 0.43000
0.42750 0.26000 0.43000
0.56000 0.26000 0.43000
0.69250 0.26000 0.43000
0.82500 0.26000 0.43000
0.95750 0.26000 0.43000
1.00000 0.26000 0.43000
0.03000 0.38500 0.43000
0.16250 0.38500 0.43000
0.29500 0.38500 0.43000
0.42750 0.38500 0.43000
0.56000 0.38500 0.43000
0.69250 0.38500 0.43000
0.82500 0.38500 0.43000
0.95750 0.38500 0.43000
1.00000 0.38500 0.43000
0.03000 0.51000 0.43000
0.16250 0.51000 0.43000
0.29500 0.51000 0.43000
0.42750 0.51000 0.43000
0.56000 0.51000 0.43000
0.69250 0.51000 0.43000
0.82500 0.51000 0.43000
0.95750 0.51000 0.43000
1.00000 0.51000 0.43000
0.03000 0.63500 0.43000
0.16250 0.63500 0.43000
0.29500 0.63500 0.43000
0.42750 0.63500 0.43000
0.56000 0.63500 0.43000
0.69250 0.63500 0.43000
0.82500 0.63500 0.43000
0.95750 0.63500 0.43000
1.00000 0.63500 0.43000
0.03000 0.76000 0.43000
0.16250 0.76000 0.43000
0.29500 0.76000 0.43000
0.42750 0.76000 0.43000
0.56000 0.76000 0.43000
0.69250 0.76000 0.43000
0.82500 0.76000 0.43000
0.95750 0.76000 0.43000
1.00000 0.76000 0.43000
0.03000 0.88500 0.43000
0.16250 0.88500 0.43000
0.29500 0.88500 0.43000
0.42750 0.88500 0.43000
0.56000 0.88500 0.43000
0.69250 0.88500 0.43000
0.82500 0.88500 0.43000
0.95750 0.88500 0.43000
1.00000 0.88500 0.43000
0.03000 1.00000 0.43000
0.16250 1.00000 0.43000
0.29500 1.00000 0.43000
0.42750 1.00000 0.43000
0.56000 1.00000 0.43000
0.69250 1.00000 0.43000
0.82500 1.00000 0.43000
0.95750 1.00000 0.43000
1.00000 1.00000 0.43000
0.03000 0.01000 0.53750
0.16250 0.01000 0.53750
0.29500 0.01000 0.53750
0.42750 0.01000 0.53750
0.56000 0.01000 0.53750
0.69250 0.01000 0.53750
0.82500 0.01000 0.53750
0.95750 0.01000 0.53750
1.00000 0.01000 0.53750
0.03000 0.13500 0.53750
0.16250 0.13500 0.53750
0.29500 0.13500 0.53750
0.42750 0.13500 0.53750
0.56000 0.13500 0.53750
0.69250 0.13500 0.53750
0.82500 0.13500 0.53750
0.95750 0.13500 0.53750
1.00000 0.13500 0.53750
0.03000 0.26000 0.53750
0.16250 0.26000 0.53750
0.29500 0.26000 0.53750
0.42750 0.26000 0.53750
0.56000 0.26000 0.53750
0.69250 0.26000 0.53750
0.82500 0.26000 0.53750
0.95750 0.26000 0.53750
1.00000 0.26000 0.53750
0.03000 0.38500 0.53750
0.16250 0.38500 0.53750
0.29500 0.38500 0.53750
0.42750 0.38500 0.53750
0.56000 0.38500 0.53750
0.69250 0.38500 0.53750
0.82500 0.38500 0.53750
0.95750 0.38500 0.53750
1.00000 0.38500 0.53750
0.03000 0.51000 0.53750
0.16250 0.51000 0.53750
0.29500 0.51000 0.53750
0.42750 0.51000 0.53750
0.56000 0.51000 0.53750
0.69250 0.51000 0.53750
0.82500 0.51000 0.53750
0.95750 0.51000 0.53750
1.00000 0.51000 0.53750
0.03000 0.63500 0.53750
0.16250 0.63500 0.53750
0.29500 0.63500 0.53750
0.42750 0.63500 0.53750
0.56000 0.63500 0.53750
0.69250 0.63500 0.53750
0.82500 0.63500 0.53750
0.95750 0.63500 0.53750
1.00000 0.63500 0.53750
0.03000 0.76000 0.53750
0.16250 0.76000 0.53750
0.29500 0.76000 0.53750
0.42750 0.76000 0.53750
0.56000 0.76000 0.53750
0.69250 0.76000 0.53750
0.82500 0.76000 0.53750
0.95750 0.76000 0.53750
1.00000 0.76000 0.53750
0.03000 0.88500 0.53750
0.16250 0.88500 0.53750
0.29500 0.88500 0.53750
0.42750 0.88500 0.53750
0.56000 0.88500 0.53750
0.69250 0.88500 0.53750
0.82500 0.88500 0.53750
0.95750 0.88500 0.53750
1.00000 0.88500 0.53750
0.03000 1.00000 0.53750
0.16250 1.00000 0.53750
0.29500 1.00000 0.53750
0.42750 1.00000 0.53750
0.56000 1.00000 0.53750
0.69250 1.00000 0.53750
0.82500 1.00000 0.53750
0.95750 1.00000 0.53750
1.00000 1.00000 0.53750
0.03000 0.01000 0.64500
0.16250 0.01000 0.64500
0.29500 0.01000 0.64500
0.42750 0.01000 0.64500
0.56000 0.01000 0.64500
0.69250 0.01000 0.64500
0.82500 0.01000 0.64500
0.95750 0.01000 0.64500
1.00000 0.01000 0.64500
0.03000 0.13500 0.64500
0.16250 0.13500 0.64500
0.29500 0.13500 0.64500
0.42750 0.13500 0.64500
0.56000 0.13500 0.64500
0.69250 0.13500 0.64500
0.82500 0.13500 0.64500
0.95750 0.13500 0.64500
1.00000 0.13500 0.64500
0.03000 0.26000 0.64500
0.16250 0.26000 0.64500
0.29500 0.26000 0.64500
0.42750 0.26000 0.64500
0.56000 0.26000 0.64500
0.69250 0.26000 0.64500
0.82500 0.26000 0.64500
0.95750 0.26000 0.64500
1.00000 0.26000 0.64500
0.03000 0.38500 0.64500
0.16250 0.38500 0.64500
0.29500 0.38500 0.64500
0.42750 0.38500 0.64500
0.56000 0.38500 0.64500
0.69250 0.38500 0.64500
0.82500 0.38500 0.64500
0.95750 0.38500 0.64500
1.00000 0.38500 0.64500
0.03000 0.51000 0.64500
0.16250 0.51000 0.64500
0.29500 0.51000 0.64500
0.42750 0.51000 0.64500
0.56000 0.51000 0.64500
0.69250 0.51000 0.64500
0.82500 0.51000 0.64500
0.95750 0.51000 0.64500
1.00000 0.51000 0.64500
0.03000 0.63500 0.64500
0.16250 0.63500 0.64500
0.29500 0.63500 0.64500
0.42750 0.63500 0.64500
0.56000 0.63500 0.64500
0.69250 0.63500 0.64500
0.82500 0.63500 0.64500
0.95750 0.63500 0.64500
1.00000 0.63500 0.64500
0.03000 0.76000 0.64500
0.16250 0.76000 0.64500
0.29500 0.76000 0.64500
0.42750 0.76000 0.64500
0.56000 0.76000 0.64500
0.69250 0.76000 0.64500
0.82500 0.76000 0.64500
0.95750 0.76000 0.64500
1.00000 0.76000 0.64500
0.03000 0.88500 0.64500
0.16250 0.88500 0.64500
0.29500 0.88500 0.64500
0.42750 0.88500 0.64500
0.56000 0.88500 0.64500
0.69250 0.88500 0.64500
0.82500 0.88500 0.64500
0.95750 0.88500 0.64500
1.00000 0.88500 0.64500
0.03000 1.00000 0.64500
0.16250 1.00000 0.64500
0.29500 1.00000 0.64500
0.42750 1.00000 0.64500
0.56000 1.00000 0.64500
0.69250 1.00000 0.64500
0.82500 1.00000 0.64500
0.95750 1.00000 0.64500
1.00000 1.00000 0.64500
0.03000 0.01000 0.75250
0.16250 0.01000 0.75250
0.29500 0.01000 0.75250
0.42750 0.01000 0.75250
0.56000 0.01000 0.75250
0.69250 0.01000 0.75250
0.82500 0.01000 0.75250
0.95750 0.01000 0.75250
1.00000 0.01000 0.75250
0.03000 0.13500 0.75250
0.16250 0.13500 0.75250
0.29500 0.13500 0.75250
0.42750 0.13500 0.75250
0.56000 0.13500 0.75250
0.69250 0.13500 0.75250
0.82500 0.13500 0.75250
0.95750 0.13500 0.75250
1.00000 0.13500 0.75250
0.03000 0.26000 0.75250
0.16250 0.26000 0.75250
0.29500 0.26000 0.75250
0.42750 0.26000 0.75250
0.56000 0.26000 0.75250
0.69250 0.26000 0.75250
0.82500 0.26000 0.75250
0.95750 0.26000 0.75250
1.00000 0.26000 0.75250
0.03000 0.38500 0.75250
0.16250 0.38500 0.75250
0.29500 0.38500 0.75250
0.42750 0.38500 0.75250
0.56000 0.38500 0.75250
0.69250 0.38500 0.75250
0.82500 0.38500 0.75250
0.95750 0.38500 0.75250
1.00000 0.38500 0.75250
0.03000 0.51000 0.75250
0.16250 0.51000 0.75250
0.29500 0.51000 0.75250
0.42750 0.51000 0.75250
0.56000 0.51000 0.75250
0.69250 0.51000 0.75250
0.82500 0.51000 0.75250
0.95750 0.51000 0.75250
1.00000 0.51000 0.75250
0.03000 0.63500 0.75250
0.16250 0.63500 0.75250
0.29500 0.63500 0.75250
0.42750 0.63500 0.75250
0.56000 0.63500 0.75250
0.69250 0.63500 0.75250
0.82500 0.63500 0.75250
0.95750 0.63500 0.75250
1.00000 0.63500 0.75250
0.03000 0.76000 0.75250
0.16250 0.76000 0.75250
0.29500 0.76000 0.75250
0.42750 0.76000 0.75250
0.56000 0.76000 0.75250
0.69250 0.76000 0.75250
0.82500 0.76000 0.75250
0.95750 0.76000 0.75250
1.00000 0.76000 0.75250
0.03000 0.88500 0.75250
0.16250 0.88500 0.75250
0.29500 0.88500 0.75250
0.42750 0.88500 0.75250
0.56000 0.88500 0.75250
0.69250 0.88500 0.75250
0.82500 0.88500 0.75250
0.95750 0.88500 0.75250
1.00000 0.88500 0.75250
0.03000 1.00000 0.75250
0.16250 1.00000 0.75250
0.29500 1.00000 0.75250
0.42750 1.00000 0.75250
0.56000 1.00000 0.75250
0.69250 1.00000 0.75250
0.82500 1.00000 0.75250
0.95750 1.00000 0.75250
1.00000 1.00000 0.75250
0.03000 0.01000 0.86000
0.16250 0.01000 0.86000
0.29500 0.01000 0.86000
0.42750 0.01000 0.86000
0.56000 0.01000 0.86000
0.69250 0.01000 0.86000
0.82500 0.01000 0.86000
0.95750 0.01000 0.86000
1.00000 0.01000 0.86000
0.03000 0.13500 0.86000
0.16250 0.13500 0.86000
0.29500 0.13500 0.86000
0.42750 0.13500 0.86000
0.56000 0.13500 0.86000
0.69250 0.13500 0.86000
0.82500 0.13500 0.86000
0.95750 0.13500 0.86000
1.00000 0.13500 0.86000
0.03000 0.26000 0.86000
0.16250 0.26000 0.86000
0.29500 0.26000 0.86000
0.42750 0.26000 0.86000
0.56000 0.26000 0.86000
0.69250 0.26000 0.86000
0.82500 0.26000 0.86000
0.95750 0.26000 0.86000
1.00000 0.26000 0.86000
0.03000 0.38500 0.86000
0.16250 0.38500 0.86000
0.29500 0.38500 0.86000
0.42750 0.38500 0.86000
0.56000 0.38500 0.86000
0.69250 0.38500 0.86000
0.82500 0.38500 0.86000
0.95750 0.38500 0.86000
1.00000 0.38500 0.86000
0.03000 0.51000 0.86000
0.16250 0.51000 0.86000
0.29500 0.51000 0.86000
0.42750 0.51000 0.86000
0.56000 0.51000 0.86000
0.69250 0.51000 0.86000
0.82500 0.51000 0.86000
0.95750 0.51000 0.86000
1.00000 0.51000 0.86000
0.03000 0.63500 0.86000
0.16250 0.63500 0.86000
0.29500 0.63500 0.86000
0.42750 0.63500 0.86000
0.56000 0.63500 0.86000
0.69250 0.63500 0.86000
0.82500 0.63500 0.86000
0.95750 0.63500 0.86000
1.00000 0.63500 0.86000
0.03000 0.76000 0.86000
0.16250 0.76000 0.86000
0.29500 0.76000 0.86000
0.42750 0.76000 0.86000
0.56000 0.76000 0.86000
0.69250 0.76000 0.86000
0.82500 0.76000 0.86000
0.95750 0.76000 0.86000
1.00000 0.76000 0.86000
0.03000 0.88500 0.86000
0.16250 0.88500 0.86000
0.29500 0.88500 0.86000
0.42750 0.88500 0.86000
0.56000 0.88500 0.86000
0.69250 0.88500 0.86000
0.82500 0.88500 0.86000
0.95750 0.88500 0.86000
1.00000 0.88500 0.86000
0.03000 1.00000 0.86000
0.16250 1.00000 0.86000
0.29500 1.00000 0.86000
0.42750 1.00000 0.86000
0.56000 1.00000 0.86000
0.69250 1.00000 0.86000
0.82500 1.00000 0.86000
0.95750 1.00000 0.86000
1.00000 1.00000 0.86000
