demos/c3-mood-piece/resources/look_mono.cube
TITLE "look_mono"
LUT_3D_SIZE 9
0.00000 0.00000 0.00000
0.00000 0.00000 0.00000
0.00000 0.00000 0.00000
0.01702 0.01668 0.01568
0.04819 0.04725 0.04441
0.07936 0.07781 0.07314
0.11053 0.10837 0.10187
0.14171 0.13893 0.13059
0.17288 0.16949 0.15932
0.02837 0.02781 0.02614
0.05954 0.05837 0.05487
0.09071 0.08893 0.08360
0.12188 0.11949 0.11232
0.15306 0.15005 0.14105
0.18423 0.18062 0.16978
0.21540 0.21118 0.19851
0.24657 0.24174 0.22723
0.27775 0.27230 0.25596
0.13323 0.13062 0.12278
0.16440 0.16118 0.15151
0.19558 0.19174 0.18024
0.22675 0.22230 0.20897
0.25792 0.25287 0.23769
0.28909 0.28343 0.26642
0.32027 0.31399 0.29515
0.35144 0.34455 0.32388
0.38261 0.37511 0.35260
0.23810 0.23343 0.21942
0.26927 0.26399 0.24815
0.30044 0.29455 0.27688
0.33162 0.32511 0.30561
0.36279 0.35568 0.33433
0.39396 0.38624 0.36306
0.42513 0.41680 0.39179
0.45631 0.44736 0.42052
0.48748 0.47792 0.44924
0.34296 0.33624 0.31607
0.37414 0.36680 0.34479
0.40531 0.39736 0.37352
0.43648 0.42792 0.40225
0.46765 0.45848 0.43098
0.49883 0.48905 0.45970
0.53000 0.51961 0.48843
0.56117 0.55017 0.51716
0.59234 0.58073 0.54589
0.44783 0.43905 0.41271
0.47900 0.46961 0.44143
0.51018 0.50017 0.47016
0.54135 0.53073 0.49889
0.57252 0.56129 0.52762
0.60369 0.59186 0.55634
0.63487 0.62242 0.58507
0.66604 0.65298 0.61380
0.69721 0.68354 0.64253
0.55270 0.54186 0.50935
0.58387 0.57242 0.53808
0.61504 0.60298 0.56680
0.64621 0.63354 0.59553
0.67739 0.66411 0.62426
0.70856 0.69467 0.65299
0.73973 0.72523 0.68171
0.77090 0.75579 0.71044
0.80208 0.78635 0.73917
0.65756 0.64467 0.60599
0.68874 0.67523 0.63472
0.71991 0.70579 0.66344
0.75108 0.73635 0.69217
0.78225 0.76692 0.72090
0.81343 0.79748 0.74963
0.84460 0.82804 0.77836
0.87577 0.85860 0.80708
0.90694 0.88916 0.83581
0.76243 0.74748 0.70263
0.79360 0.77804 0.73136
0.82477 0.80860 0.76009
0.85595 0.83916 0.78881
0.88712 0.86972 0.81754
0.91829 0.90029 0.84627
0.94946 0.93085 0.87500
0.98064 0.96141 0.90372
1.00000 0.99197 0.93245
0.00000 0.00000 0.00000
0.00000 0.00000 0.00000
0.00000 0.00000 0.00000
0.02760 0.02706 0.02544
0.05878 0.05762 0.05417
0.08995 0.08819 0.08289
0.12112 0.11875 0.11162
0.15229 0.14931 0.14035
0.18347 0.17987 0.16908
0.03895 0.03819 0.03590
0.07013 0.06875 0.06463
0.10130 0.09931 0.09335
0.13247 0.12987 0.12208
0.16364 0.16043 0.15081
0.19481 0.19100 0.17954
0.22599 0.22156 0.20826
0.25716 0.25212 0.23699
0.28833 0.28268 0.26572
0.14382 0.14100 0.13254
0.17499 0.17156 0.16127
0.20616 0.20212 0.18999
0.23734 0.23268 0.21872
0.26851 0.26324 0.24745
0.29968 0.29381 0.27618
0.33085 0.32437 0.30490
0.36203 0.35493 0.33363
0.39320 0.38549 0.36236
0.24868 0.24381 0.22918
0.27986 0.27437 0.25791
0.31103 0.30493 0.28664
0.34220 0.33549 0.31536
0.37337 0.36605 0.34409
0.40455 0.39662 0.37282
0.43572 0.42718 0.40155
0.46689 0.45774 0.43027
0.49806 0.48830 0.45900
0.35355 0.34662 0.32582
0.38472 0.37718 0.35455
0.41590 0.40774 0.38328
0.44707 0.43830 0.41200
0.47824 0.46886 0.44073
0.50941 0.49943 0.46946
0.54059 0.52999 0.49819
0.57176 0.56055 0.52691
0.60293 0.59111 0.55564
0.45842 0.44943 0.42246
0.48959 0.47999 0.45119
0.52076 0.51055 0.47992
0.55193 0.54111 0.50865
0.58311 0.57167 0.53737
0.61428 0.60223 0.56610
0.64545 0.63280 0.59483
0.67662 0.66336 0.62356
0.70780 0.69392 0.65228
0.56328 0.55224 0.51910
0.59446 0.58280 0.54783
0.62563 0.61336 0.57656
0.65680 0.64392 0.60529
0.68797 0.67448 0.63401
0.71915 0.70505 0.66274
0.75032 0.73561 0.69147
0.78149 0.76617 0.72020
0.81266 0.79673 0.74893
0.66815 0.65505 0.61575
0.69932 0.68561 0.64447
0.73049 0.71617 0.67320
0.76167 0.74673 0.70193
0.79284 0.77729 0.73066
0.82401 0.80785 0.75938
0.85518 0.83842 0.78811
0.88636 0.86898 0.81684
0.91753 0.89954 0.84557
0.77302 0.75786 0.71239
0.80419 0.78842 0.74111
0.83536 0.81898 0.76984
0.86653 0.84954 0.79857
0.89771 0.88010 0.82730
0.92888 0.91066 0.85603
0.96005 0.94123 0.88475
0.99122 0.97179 0.91348
1.00000 1.00000 0.94221
0.00000 0.00000 0.00000
0.00000 0.00000 0.00000
0.00702 0.00688 0.00647
0.03819 0.03744 0.03519
0.06936 0.06800 0.06392
0.10054 0.09856 0.09265
0.13171 0.12913 0.12138
0.16288 0.15969 0.15011
0.19405 0.19025 0.17883
0.04954 0.04857 0.04565
0.08071 0.07913 0.07438
0.11188 0.10969 0.10311
0.14306 0.14025 0.13184
0.17423 0.17081 0.16056
0.20540 0.20137 0.18929
0.23657 0.23194 0.21802
0.26775 0.26250 0.24675
0.29892 0.29306 0.27547
0.15441 0.15138 0.14229
0.18558 0.18194 0.17102
0.21675 0.21250 0.19975
0.24792 0.24306 0.22848
0.27909 0.27362 0.25721
0.31027 0.30418 0.28593
0.34144 0.33475 0.31466
0.37261 0.36531 0.34339
0.40378 0.39587 0.37212
0.25927 0.25419 0.23894
0.29044 0.28475 0.26766
0.32162 0.31531 0.29639
0.35279 0.34587 0.32512
0.38396 0.37643 0.35385
0.41513 0.40699 0.38257
0.44631 0.43755 0.41130
0.47748 0.46812 0.44003
0.50865 0.49868 0.46876
0.36414 0.35700 0.33558
0.39531 0.38756 0.36431
0.42648 0.41812 0.39303
0.45765 0.44868 0.42176
0.48883 0.47924 0.45049
0.52000 0.50980 0.47922
0.55117 0.54036 0.50794
0.58234 0.57093 0.53667
0.61352 0.60149 0.56540
0.46900 0.45981 0.43222
0.50018 0.49037 0.46095
0.53135 0.52093 0.48967
0.56252 0.55149 0.51840
0.59369 0.58205 0.54713
0.62487 0.61261 0.57586
0.65604 0.64317 0.60458
0.68721 0.67374 0.63331
0.71838 0.70430 0.66204
0.57387 0.56262 0.52886
0.60504 0.59318 0.55759
0.63621 0.62374 0.58632
0.66739 0.65430 0.61504
0.69856 0.68486 0.64377
0.72973 0.71542 0.67250
0.76090 0.74598 0.70123
0.79208 0.77655 0.72995
0.82325 0.80711 0.75868
0.67874 0.66543 0.62550
0.70991 0.69599 0.65423
0.74108 0.72655 0.68296
0.77225 0.75711 0.71168
0.80343 0.78767 0.74041
0.83460 0.81823 0.76914
0.86577 0.84879 0.79787
0.89694 0.87936 0.82659
0.92812 0.90992 0.85532
0.78360 0.76824 0.72214
0.81477 0.79880 0.75087
0.84595 0.82936 0.77960
0.87712 0.85992 0.80833
0.90829 0.89048 0.83705
0.93946 0.92104 0.86578
0.97064 0.95160 0.89451
1.00000 0.98217 0.92324
1.00000 1.00000 0.95196
0.00000 0.00000 0.00000
0.00000 0.00000 0.00000
0.01760 0.01726 0.01622
0.04878 0.04782 0.04495
0.07995 0.07838 0.07368
0.11112 0.10894 0.10241
0.14229 0.13950 0.13113
0.17347 0.17007 0.15986
0.20464 0.20063 0.18859
0.06013 0.05895 0.05541
0.09130 0.08951 0.08414
0.12247 0.12007 0.11286
0.15364 0.15063 0.14159
0.18482 0.18119 0.17032
0.21599 0.21175 0.19905
0.24716 0.24231 0.22777
0.27833 0.27287 0.25650
0.30950 0.30344 0.28523
0.16499 0.16176 0.15205
0.19616 0.19232 0.18078
0.22734 0.22288 0.20951
0.25851 0.25344 0.23823
0.28968 0.28400 0.26696
0.32085 0.31456 0.29569
0.35203 0.34512 0.32442
0.38320 0.37568 0.35314
0.41437 0.40625 0.38187
0.26986 0.26457 0.24869
0.30103 0.29513 0.27742
0.33220 0.32569 0.30615
0.36338 0.35625 0.33487
0.39455 0.38681 0.36360
0.42572 0.41737 0.39233
0.45689 0.44793 0.42106
0.48806 0.47850 0.44979
0.51924 0.50906 0.47851
0.37472 0.36738 0.34533
0.40590 0.39794 0.37406
0.43707 0.42850 0.40279
0.46824 0.45906 0.43152
0.49941 0.48962 0.46024
0.53059 0.52018 0.48897
0.56176 0.55074 0.51770
0.59293 0.58130 0.54643
0.62410 0.61187 0.57515
0.47959 0.47019 0.44198
0.51076 0.50075 0.47070
0.54193 0.53131 0.49943
0.57311 0.56187 0.52816
0.60428 0.59243 0.55689
0.63545 0.62299 0.58561
0.66662 0.65355 0.61434
0.69780 0.68411 0.64307
0.72897 0.71468 0.67180
0.58446 0.57300 0.53862
0.61563 0.60356 0.56734
0.64680 0.63412 0.59607
0.67797 0.66468 0.62480
0.70915 0.69524 0.65353
0.74032 0.72580 0.68225
0.77149 0.75636 0.71098
0.80266 0.78692 0.73971
0.83384 0.81749 0.76844
0.68932 0.67581 0.63526
0.72049 0.70637 0.66399
0.75167 0.73693 0.69271
0.78284 0.76749 0.72144
0.81401 0.79805 0.75017
0.84518 0.82861 0.77890
0.87636 0.85917 0.80762
0.90753 0.88973 0.83635
0.93870 0.92030 0.86508
0.79419 0.77862 0.73190
0.82536 0.80918 0.76063
0.85653 0.83974 0.78935
0.88771 0.87030 0.81808
0.91888 0.90086 0.84681
0.95005 0.93142 0.87554
0.98122 0.96198 0.90426
1.00000 0.99254 0.93299
1.00000 1.00000 0.96172
0.00000 0.00000 0.00000
0.00000 0.00000 0.00000
0.02819 0.02764 0.02598
0.05936 0.05820 0.05471
0.09054 0.08876 0.08343
0.12171 0.11932 0.11216
0.15288 0.14988 0.14089
0.18405 0.18044 0.16962
0.21523 0.21101 0.19834
0.07071 0.06933 0.06517
0.10188 0.09989 0.09389
0.13306 0.13045 0.12262
0.16423 0.16101 0.15135
0.19540 0.19157 0.18008
0.22657 0.22213 0.20880
0.25775 0.25269 0.23753
0.28892 0.28325 0.26626
0.32009 0.31382 0.29499
0.17558 0.17213 0.16181
0.20675 0.20270 0.19053
0.23792 0.23326 0.21926
0.26910 0.26382 0.24799
0.30027 0.29438 0.27672
0.33144 0.32494 0.30544
0.36261 0.35550 0.33417
0.39379 0.38606 0.36290
0.42496 0.41663 0.39163
0.28044 0.27494 0.25845
0.31162 0.30551 0.28718
0.34279 0.33607 0.31590
0.37396 0.36663 0.34463
0.40513 0.39719 0.37336
0.43631 0.42775 0.40209
0.46748 0.45831 0.43081
0.49865 0.48887 0.45954
0.52982 0.51943 0.48827
0.38531 0.37776 0.35509
0.41648 0.40832 0.38382
0.44766 0.43888 0.41254
0.47883 0.46944 0.44127
0.51000 0.50000 0.47000
0.54117 0.53056 0.49873
0.57234 0.56112 0.52746
0.60352 0.59168 0.55618
0.63469 0.62225 0.58491
0.49018 0.48056 0.45173
0.52135 0.51113 0.48046
0.55252 0.54169 0.50919
0.58369 0.57225 0.53791
0.61487 0.60281 0.56664
0.64604 0.63337 0.59537
0.67721 0.66393 0.62410
0.70838 0.69449 0.65282
0.73956 0.72506 0.68155
0.59504 0.58337 0.54837
0.62621 0.61394 0.57710
0.65739 0.64450 0.60583
0.68856 0.67506 0.63456
0.71973 0.70562 0.66328
0.75090 0.73618 0.69201
0.78208 0.76674 0.72074
0.81325 0.79730 0.74947
0.84442 0.82787 0.77819
0.69991 0.68618 0.64501
0.73108 0.71675 0.67374
0.76225 0.74731 0.70247
0.79343 0.77787 0.73120
0.82460 0.80843 0.75992
0.85577 0.83899 0.78865
0.88694 0.86955 0.81738
0.91812 0.90011 0.84611
0.94929 0.93067 0.87483
0.80477 0.78899 0.74166
0.83595 0.81956 0.77038
0.86712 0.85012 0.79911
0.89829 0.88068 0.82784
0.92946 0.91124 0.85657
0.96064 0.94180 0.88529
0.99181 0.97236 0.91402
1.00000 1.00000 0.94275
1.00000 1.00000 0.97148
0.00000 0.00000 0.00000
0.00760 0.00746 0.00701
0.03878 0.03802 0.03574
0.06995 0.06858 0.06446
0.10112 0.09914 0.09319
0.13229 0.12970 0.12192
0.16347 0.16026 0.15065
0.19464 0.19082 0.17937
0.22581 0.22138 0.20810
0.08130 0.07970 0.07492
0.11247 0.11027 0.10365
0.14364 0.14083 0.13238
0.17482 0.17139 0.16110
0.20599 0.20195 0.18983
0.23716 0.23251 0.21856
0.26833 0.26307 0.24729
0.29951 0.29363 0.27601
0.33068 0.32419 0.30474
0.18616 0.18251 0.17156
0.21734 0.21307 0.20029
0.24851 0.24364 0.22902
0.27968 0.27420 0.25775
0.31085 0.30476 0.28647
0.34203 0.33532 0.31520
0.37320 0.36588 0.34393
0.40437 0.39644 0.37266
0.43554 0.42700 0.40138
0.29103 0.28532 0.26820
0.32220 0.31588 0.29693
0.35338 0.34645 0.32566
0.38455 0.37701 0.35439
0.41572 0.40757 0.38311
0.44689 0.43813 0.41184
0.47807 0.46869 0.44057
0.50924 0.49925 0.46930
0.54041 0.52981 0.49802
0.39590 0.38813 0.36485
0.42707 0.41870 0.39357
0.45824 0.44926 0.42230
0.48941 0.47982 0.45103
0.52059 0.51038 0.47976
0.55176 0.54094 0.50848
0.58293 0.57150 0.53721
0.61410 0.60206 0.56594
0.64528 0.63262 0.59467
0.50076 0.49094 0.46149
0.53194 0.52150 0.49021
0.56311 0.55207 0.51894
0.59428 0.58263 0.54767
0.62545 0.61319 0.57640
0.65662 0.64375 0.60512
0.68780 0.67431 0.63385
0.71897 0.70487 0.66258
0.75014 0.73543 0.69131
0.60563 0.59375 0.55813
0.63680 0.62431 0.58686
0.66797 0.65488 0.61558
0.69915 0.68544 0.64431
0.73032 0.71600 0.67304
0.76149 0.74656 0.70177
0.79266 0.77712 0.73049
0.82384 0.80768 0.75922
0.85501 0.83824 0.78795
0.71050 0.69656 0.65477
0.74167 0.72712 0.68350
0.77284 0.75769 0.71223
0.80401 0.78825 0.74095
0.83518 0.81881 0.76968
0.86636 0.84937 0.79841
0.89753 0.87993 0.82714
0.92870 0.91049 0.85586
0.95987 0.94105 0.88459
0.81536 0.79937 0.75141
0.84653 0.82993 0.78014
0.87771 0.86050 0.80887
0.90888 0.89106 0.83759
0.94005 0.92162 0.86632
0.97122 0.95218 0.89505
1.00000 0.98274 0.92378
1.00000 1.00000 0.95250
1.00000 1.00000 0.98123
0.00000 0.00000 0.00000
0.01819 0.01783 0.01676
0.04936 0.04840 0.04549
0.08054 0.07896 0.07422
0.11171 0.10952 0.10295
0.14288 0.14008 0.13167
0.17405 0.17064 0.16040
0.20523 0.20120 0.18913
0.23640 0.23176 0.21786
0.09188 0.09008 0.08468
0.12306 0.12064 0.11341
0.15423 0.15121 0.14213
0.18540 0.18177 0.17086
0.21657 0.21233 0.19959
0.24775 0.24289 0.22832
0.27892 0.27345 0.25704
0.31009 0.30401 0.28577
0.34126 0.33457 0.31450
0.19675 0.19289 0.18132
0.22792 0.22345 0.21005
0.25910 0.25402 0.23877
0.29027 0.28458 0.26750
0.32144 0.31514 0.29623
0.35261 0.34570 0.32496
0.38379 0.37626 0.35368
0.41496 0.40682 0.38241
0.44613 0.43738 0.41114
0.30162 0.29570 0.27796
0.33279 0.32626 0.30669
0.36396 0.35683 0.33542
0.39513 0.38739 0.36414
0.42631 0.41795 0.39287
0.45748 0.44851 0.42160
0.48865 0.47907 0.45033
0.51982 0.50963 0.47905
0.55100 0.54019 0.50778
0.40648 0.39851 0.37460
0.43766 0.42907 0.40333
0.46883 0.45963 0.43206
0.50000 0.49020 0.46078
0.53117 0.52076 0.48951
0.56235 0.55132 0.51824
0.59352 0.58188 0.54697
0.62469 0.61244 0.57569
0.65586 0.64300 0.60442
0.51135 0.50132 0.47124
0.54252 0.53188 0.49997
0.57369 0.56244 0.52870
0.60487 0.59301 0.55743
0.63604 0.62357 0.58615
0.66721 0.65413 0.61488
0.69838 0.68469 0.64361
0.72956 0.71525 0.67234
0.76073 0.74581 0.70106
0.61622 0.60413 0.56788
0.64739 0.63469 0.59661
0.67856 0.66526 0.62534
0.70973 0.69582 0.65407
0.74091 0.72638 0.68279
0.77208 0.75694 0.71152
0.80325 0.78750 0.74025
0.83442 0.81806 0.76898
0.86559 0.84862 0.79771
0.72108 0.70694 0.66453
0.75225 0.73750 0.69325
0.78343 0.76806 0.72198
0.81460 0.79863 0.75071
0.84577 0.82919 0.77944
0.87694 0.85975 0.80816
0.90812 0.89031 0.83689
0.93929 0.92087 0.86562
0.97046 0.95143 0.89435
0.82595 0.80975 0.76117
0.85712 0.84031 0.78989
0.88829 0.87087 0.81862
0.91946 0.90144 0.84735
0.95064 0.93200 0.87608
0.98181 0.96256 0.90481
1.00000 0.99312 0.93353
1.00000 1.00000 0.96226
1.00000 1.00000 0.99099
0.00000 0.00000 0.00000
0.02878 0.02821 0.02652
0.05995 0.05877 0.05525
0.09112 0.08934 0.08397
0.12229 0.11990 0.11270
0.15347 0.15046 0.14143
0.18464 0.18102 0.17016
0.21581 0.21158 0.19889
0.24698 0.24214 0.22761
0.10247 0.10046 0.09443
0.13364 0.13102 0.12316
0.16482 0.16158 0.15189
0.19599 0.19215 0.18062
0.22716 0.22271 0.20934
0.25833 0.25327 0.23807
0.28951 0.28383 0.26680
0.32068 0.31439 0.29553
0.35185 0.34495 0.32425
0.20734 0.20327 0.19107
0.23851 0.23383 0.21980
0.26968 0.26439 0.24853
0.30085 0.29495 0.27726
0.33203 0.32552 0.30599
0.36320 0.35608 0.33471
0.39437 0.38664 0.36344
0.42554 0.41720 0.39217
0.45672 0.44776 0.42090
0.31220 0.30608 0.28772
0.34338 0.33664 0.31644
0.37455 0.36720 0.34517
0.40572 0.39776 0.37390
0.43689 0.42833 0.40263
0.46807 0.45889 0.43135
0.49924 0.48945 0.46008
0.53041 0.52001 0.48881
0.56158 0.55057 0.51754
0.41707 0.40889 0.38436
0.44824 0.43945 0.41309
0.47941 0.47001 0.44181
0.51059 0.50057 0.47054
0.54176 0.53114 0.49927
0.57293 0.56170 0.52800
0.60410 0.59226 0.55672
0.63528 0.62282 0.58545
0.66645 0.65338 0.61418
0.52194 0.51170 0.48100
0.55311 0.54226 0.50973
0.58428 0.57282 0.53845
0.61545 0.60338 0.56718
0.64663 0.63395 0.59591
0.67780 0.66451 0.62464
0.70897 0.69507 0.65336
0.74014 0.72563 0.68209
0.77132 0.75619 0.71082
0.62680 0.61451 0.57764
0.65797 0.64507 0.60637
0.68915 0.67563 0.63510
0.72032 0.70620 0.66382
0.75149 0.73676 0.69255
0.78266 0.76732 0.72128
0.81384 0.79788 0.75001
0.84501 0.82844 0.77873
0.87618 0.85900 0.80746
0.73167 0.71732 0.67428
0.76284 0.74788 0.70301
0.79401 0.77844 0.73174
0.82519 0.80900 0.76046
0.85636 0.83957 0.78919
0.88753 0.87013 0.81792
0.91870 0.90069 0.84665
0.94987 0.93125 0.87537
0.98105 0.96181 0.90410
0.83653 0.82013 0.77092
0.86771 0.85069 0.79965
0.89888 0.88125 0.82838
0.93005 0.91181 0.85711
0.96122 0.94238 0.88583
0.99240 0.97294 0.91456
1.00000 1.00000 0.94329
1.00000 1.00000 0.97202
1.00000 1.00000 1.00000
0.00819 0.00803 0.00755
0.03936 0.03859 0.03628
0.07054 0.06915 0.06500
0.10171 0.09971 0.09373
0.13288 0.13028 0.12246
0.16405 0.16084 0.15119
0.19523 0.19140 0.17991
0.22640 0.22196 0.20864
0.25757 0.25252 0.23737
0.11306 0.11084 0.10419
0.14423 0.14140 0.13292
0.17540 0.17196 0.16164
0.20657 0.20252 0.19037
0.23775 0.23308 0.21910
0.26892 0.26365 0.24783
0.30009 0.29421 0.27656
0.33126 0.32477 0.30528
0.36244 0.35533 0.33401
0.21792 0.21365 0.20083
0.24910 0.24421 0.22956
0.28027 0.27477 0.25829
0.31144 0.30533 0.28701
0.34261 0.33590 0.31574
0.37379 0.36646 0.34447
0.40496 0.39702 0.37320
0.43613 0.42758 0.40192
0.46730 0.45814 0.43065
0.32279 0.31646 0.29747
0.35396 0.34702 0.32620
0.38513 0.37758 0.35493
0.41631 0.40814 0.38366
0.44748 0.43871 0.41238
0.47865 0.46927 0.44111
0.50982 0.49983 0.46984
0.54100 0.53039 0.49857
0.57217 0.56095 0.52729
0.42766 0.41927 0.39411
0.45883 0.44983 0.42284
0.49000 0.48039 0.45157
0.52117 0.51095 0.48030
0.55235 0.54151 0.50902
0.58352 0.57208 0.53775
0.61469 0.60264 0.56648
0.64586 0.63320 0.59521
0.67704 0.66376 0.62393
0.53252 0.52208 0.49076
0.56369 0.55264 0.51948
0.59487 0.58320 0.54821
0.62604 0.61376 0.57694
0.65721 0.64432 0.60567
0.68838 0.67489 0.63439
0.71956 0.70545 0.66312
0.75073 0.73601 0.69185
0.78190 0.76657 0.72058
0.63739 0.62489 0.58740
0.66856 0.65545 0.61612
0.69973 0.68601 0.64485
0.73091 0.71657 0.67358
0.76208 0.74714 0.70231
0.79325 0.77770 0.73103
0.82442 0.80826 0.75976
0.85560 0.83882 0.78849
0.88677 0.86938 0.81722
0.74225 0.72770 0.68404
0.77343 0.75826 0.71277
0.80460 0.78882 0.74149
0.83577 0.81938 0.77022
0.86694 0.84994 0.79895
0.89812 0.88051 0.82768
0.92929 0.91107 0.85640
0.96046 0.94163 0.88513
0.99163 0.97219 0.91386
0.84712 0.83051 0.78068
0.87829 0.86107 0.80941
0.90947 0.89163 0.83813
0.94064 0.92219 0.86686
0.97181 0.95275 0.89559
1.00000 0.98332 0.92432
1.00000 1.00000 0.95304
1.00000 1.00000 0.98177
1.00000 1.00000 1.00000
