demos/c3-mood-piece/resources/look_mono.cube
TITLE "look_mono"
LUT_3D_SIZE 17
0.00000 0.00000 0.00000
0.00000 0.00000 0.00000
0.00000 0.00000 0.00000
0.00000 0.00000 0.00000
0.00000 0.00000 0.00000
0.00143 0.00140 0.00132
0.01702 0.01668 0.01568
0.03260 0.03196 0.03005
0.04819 0.04725 0.04441
0.06378 0.06253 0.05877
0.07936 0.07781 0.07314
0.09495 0.09309 0.08750
0.11053 0.10837 0.10187
0.12612 0.12365 0.11623
0.14171 0.13893 0.13059
0.15729 0.15421 0.14496
0.17288 0.16949 0.15932
0.00000 0.00000 0.00000
0.00000 0.00000 0.00000
0.00711 0.00697 0.00655
0.02269 0.02225 0.02091
0.03828 0.03753 0.03528
0.05386 0.05281 0.04964
0.06945 0.06809 0.06400
0.08504 0.08337 0.07837
0.10062 0.09865 0.09273
0.11621 0.11393 0.10709
0.13180 0.12921 0.12146
0.14738 0.14449 0.13582
0.16297 0.15977 0.15019
0.17855 0.17505 0.16455
0.19414 0.19033 0.17891
0.20973 0.20561 0.19328
0.22531 0.22090 0.20764
0.02837 0.02781 0.02614
0.04395 0.04309 0.04051
0.05954 0.05837 0.05487
0.07512 0.07365 0.06923
0.09071 0.08893 0.08360
0.10630 0.10421 0.09796
0.12188 0.11949 0.11232
0.13747 0.13477 0.12669
0.15306 0.15005 0.14105
0.16864 0.16534 0.15542
0.18423 0.18062 0.16978
0.19981 0.19590 0.18414
0.21540 0.21118 0.19851
0.23099 0.22646 0.21287
0.24657 0.24174 0.22723
0.26216 0.25702 0.24160
0.27775 0.27230 0.25596
0.08080 0.07922 0.07446
0.09639 0.09450 0.08883
0.11197 0.10978 0.10319
0.12756 0.12506 0.11755
0.14314 0.14034 0.13192
0.15873 0.15562 0.14628
0.17432 0.17090 0.16064
0.18990 0.18618 0.17501
0.20549 0.20146 0.18937
0.22108 0.21674 0.20374
0.23666 0.23202 0.21810
0.25225 0.24730 0.23246
0.26783 0.26258 0.24683
0.28342 0.27786 0.26119
0.29901 0.29314 0.27556
0.31459 0.30842 0.28992
0.33018 0.32371 0.30428
0.13323 0.13062 0.12278
0.14882 0.14590 0.13715
0.16440 0.16118 0.15151
0.17999 0.17646 0.16587
0.19558 0.19174 0.18024
0.21116 0.20702 0.19460
0.22675 0.22230 0.20897
0.24234 0.23758 0.22333
0.25792 0.25287 0.23769
0.27351 0.26815 0.25206
0.28909 0.28343 0.26642
0.30468 0.29871 0.28078
0.32027 0.31399 0.29515
0.33585 0.32927 0.30951
0.35144 0.34455 0.32388
0.36703 0.35983 0.33824
0.38261 0.37511 0.35260
0.18567 0.18202 0.17110
0.20125 0.19731 0.18547
0.21684 0.21259 0.19983
0.23242 0.22787 0.21419
0.24801 0.24315 0.22856
0.26360 0.25843 0.24292
0.27918 0.27371 0.25729
0.29477 0.28899 0.27165
0.31036 0.30427 0.28601
0.32594 0.31955 0.30038
0.34153 0.33483 0.31474
0.35711 0.35011 0.32911
0.37270 0.36539 0.34347
0.38829 0.38067 0.35783
0.40387 0.39595 0.37220
0.41946 0.41123 0.38656
0.43505 0.42651 0.40092
0.23810 0.23343 0.21942
0.25368 0.24871 0.23379
0.26927 0.26399 0.24815
0.28486 0.27927 0.26252
0.30044 0.29455 0.27688
0.31603 0.30983 0.29124
0.33162 0.32511 0.30561
0.34720 0.34039 0.31997
0.36279 0.35568 0.33433
0.37837 0.37096 0.34870
0.39396 0.38624 0.36306
0.40955 0.40152 0.37743
0.42513 0.41680 0.39179
0.44072 0.43208 0.40615
0.45631 0.44736 0.42052
0.47189 0.46264 0.43488
0.48748 0.47792 0.44924
0.29053 0.28483 0.26774
0.30612 0.30012 0.28211
0.32170 0.31540 0.29647
0.33729 0.33068 0.31084
0.35288 0.34596 0.32520
0.36846 0.36124 0.33956
0.38405 0.37652 0.35393
0.39964 0.39180 0.36829
0.41522 0.40708 0.38266
0.43081 0.42236 0.39702
0.44639 0.43764 0.41138
0.46198 0.45292 0.42575
0.47757 0.46820 0.44011
0.49315 0.48348 0.45447
0.50874 0.49876 0.46884
0.52433 0.51404 0.48320
0.53991 0.52932 0.49757
0.34296 0.33624 0.31607
0.35855 0.35152 0.33043
0.37414 0.36680 0.34479
0.38972 0.38208 0.35916
0.40531 0.39736 0.37352
0.42090 0.41264 0.38788
0.43648 0.42792 0.40225
0.45207 0.44320 0.41661
0.46765 0.45848 0.43098
0.48324 0.47377 0.44534
0.49883 0.48905 0.45970
0.51441 0.50433 0.47407
0.53000 0.51961 0.48843
0.54559 0.53489 0.50279
0.56117 0.55017 0.51716
0.57676 0.56545 0.53152
0.59234 0.58073 0.54589
0.39540 0.38765 0.36439
0.41098 0.40293 0.37875
0.42657 0.41821 0.39311
0.44216 0.43349 0.40748
0.45774 0.44877 0.42184
0.47333 0.46405 0.43621
0.48892 0.47933 0.45057
0.50450 0.49461 0.46493
0.52009 0.50989 0.47930
0.53567 0.52517 0.49366
0.55126 0.54045 0.50802
0.56685 0.55573 0.52239
0.58243 0.57101 0.53675
0.59802 0.58629 0.55112
0.61361 0.60157 0.56548
0.62919 0.61685 0.57984
0.64478 0.63214 0.59421
0.44783 0.43905 0.41271
0.46342 0.45433 0.42707
0.47900 0.46961 0.44143
0.49459 0.48489 0.45580
0.51018 0.50017 0.47016
0.52576 0.51545 0.48453
0.54135 0.53073 0.49889
0.55693 0.54601 0.51325
0.57252 0.56129 0.52762
0.58811 0.57658 0.54198
0.60369 0.59186 0.55634
0.61928 0.60714 0.57071
0.63487 0.62242 0.58507
0.65045 0.63770 0.59944
0.66604 0.65298 0.61380
0.68162 0.66826 0.62816
0.69721 0.68354 0.64253
0.50026 0.49045 0.46103
0.51585 0.50574 0.47539
0.53144 0.52102 0.48976
0.54702 0.53630 0.50412
0.56261 0.55158 0.51848
0.57820 0.56686 0.53285
0.59378 0.58214 0.54721
0.60937 0.59742 0.56157
0.62495 0.61270 0.57594
0.64054 0.62798 0.59030
0.65613 0.64326 0.60467
0.67171 0.65854 0.61903
0.68730 0.67382 0.63339
0.70289 0.68910 0.64776
0.71847 0.70438 0.66212
0.73406 0.71966 0.67648
0.74964 0.73494 0.69085
0.55270 0.54186 0.50935
0.56828 0.55714 0.52371
0.58387 0.57242 0.53808
0.59946 0.58770 0.55244
0.61504 0.60298 0.56680
0.63063 0.61826 0.58117
0.64621 0.63354 0.59553
0.66180 0.64882 0.60989
0.67739 0.66411 0.62426
0.69297 0.67939 0.63862
0.70856 0.69467 0.65299
0.72415 0.70995 0.66735
0.73973 0.72523 0.68171
0.75532 0.74051 0.69608
0.77090 0.75579 0.71044
0.78649 0.77107 0.72481
0.80208 0.78635 0.73917
0.60513 0.59326 0.55767
0.62072 0.60855 0.57203
0.63630 0.62383 0.58640
0.65189 0.63911 0.60076
0.66748 0.65439 0.61512
0.68306 0.66967 0.62949
0.69865 0.68495 0.64385
0.71423 0.70023 0.65822
0.72982 0.71551 0.67258
0.74541 0.73079 0.68694
0.76099 0.74607 0.70131
0.77658 0.76135 0.71567
0.79217 0.77663 0.73003
0.80775 0.79191 0.74440
0.82334 0.80719 0.75876
0.83892 0.82247 0.77313
0.85451 0.83775 0.78749
0.65756 0.64467 0.60599
0.67315 0.65995 0.62035
0.68874 0.67523 0.63472
0.70432 0.69051 0.64908
0.71991 0.70579 0.66344
0.73549 0.72107 0.67781
0.75108 0.73635 0.69217
0.76667 0.75163 0.70654
0.78225 0.76692 0.72090
0.79784 0.78220 0.73526
0.81343 0.79748 0.74963
0.82901 0.81276 0.76399
0.84460 0.82804 0.77836
0.86018 0.84332 0.79272
0.87577 0.85860 0.80708
0.89136 0.87388 0.82145
0.90694 0.88916 0.83581
0.71000 0.69607 0.65431
0.72558 0.71136 0.66867
0.74117 0.72664 0.68304
0.75676 0.74192 0.69740
0.77234 0.75720 0.71177
0.78793 0.77248 0.72613
0.80351 0.78776 0.74049
0.81910 0.80304 0.75486
0.83469 0.81832 0.76922
0.85027 0.83360 0.78358
0.86586 0.84888 0.79795
0.88145 0.86416 0.81231
0.89703 0.87944 0.82668
0.91262 0.89472 0.84104
0.92820 0.91000 0.85540
0.94379 0.92528 0.86977
0.95938 0.94056 0.88413
0.76243 0.74748 0.70263
0.77802 0.76276 0.71699
0.79360 0.77804 0.73136
0.80919 0.79332 0.74572
0.82477 0.80860 0.76009
0.84036 0.82388 0.77445
0.85595 0.83916 0.78881
0.87153 0.85444 0.80318
0.88712 0.86972 0.81754
0.90271 0.88501 0.83191
0.91829 0.90029 0.84627
0.93388 0.91557 0.86063
0.94946 0.93085 0.87500
0.96505 0.94613 0.88936
0.98064 0.96141 0.90372
0.99622 0.97669 0.91809
1.00000 0.99197 0.93245
0.00000 0.00000 0.00000
0.00000 0.00000 0.00000
0.00000 0.00000 0.00000
0.00000 0.00000 0.00000
0.00000 0.00000 0.00000
0.00672 0.00659 0.00620
0.02231 0.02187 0.02056
0.03790 0.03715 0.03492
0.05348 0.05243 0.04929
0.06907 0.06772 0.06365
0.08466 0.08300 0.07802
0.10024 0.09828 0.09238
0.11583 0.11356 0.10674
0.13141 0.12884 0.12111
0.14700 0.14412 0.13547
0.16259 0.15940 0.14983
0.17817 0.17468 0.16420
0.00000 0.00000 0.00000
0.00000 0.00000 0.00000
0.01240 0.01216 0.01143
0.02798 0.02744 0.02579
0.04357 0.04272 0.04015
0.05916 0.05800 0.05452
0.07474 0.07328 0.06888
0.09033 0.08856 0.08325
0.10592 0.10384 0.09761
0.12150 0.11912 0.11197
0.13709 0.13440 0.12634
0.15267 0.14968 0.14070
0.16826 0.16496 0.15506
0.18385 0.18024 0.16943
0.19943 0.19552 0.18379
0.21502 0.21080 0.19816
0.23061 0.22608 0.21252
0.03366 0.03300 0.03102
0.04925 0.04828 0.04538
0.06483 0.06356 0.05975
0.08042 0.07884 0.07411
0.09600 0.09412 0.08847
0.11159 0.10940 0.10284
0.12718 0.12468 0.11720
0.14276 0.13996 0.13157
0.15835 0.15524 0.14593
0.17394 0.17053 0.16029
0.18952 0.18581 0.17466
0.20511 0.20109 0.18902
0.22069 0.21637 0.20338
0.23628 0.23165 0.21775
0.25187 0.24693 0.23211
0.26745 0.26221 0.24648
0.28304 0.27749 0.26084
0.08609 0.08440 0.07934
0.10168 0.09969 0.09370
0.11726 0.11497 0.10807
0.13285 0.13025 0.12243
0.14844 0.14553 0.13680
0.16402 0.16081 0.15116
0.17961 0.17609 0.16552
0.19520 0.19137 0.17989
0.21078 0.20665 0.19425
0.22637 0.22193 0.20861
0.24195 0.23721 0.22298
0.25754 0.25249 0.23734
0.27313 0.26777 0.25171
0.28871 0.28305 0.26607
0.30430 0.29833 0.28043
0.31989 0.31361 0.29480
0.33547 0.32889 0.30916
0.13853 0.13581 0.12766
0.15411 0.15109 0.14202
0.16970 0.16637 0.15639
0.18528 0.18165 0.17075
0.20087 0.19693 0.18512
0.21646 0.21221 0.19948
0.23204 0.22749 0.21384
0.24763 0.24277 0.22821
0.26322 0.25805 0.24257
0.27880 0.27333 0.25693
0.29439 0.28862 0.27130
0.30997 0.30390 0.28566
0.32556 0.31918 0.30003
0.34115 0.33446 0.31439
0.35673 0.34974 0.32875
0.37232 0.36502 0.34312
0.38791 0.38030 0.35748
0.19096 0.18721 0.17598
0.20654 0.20249 0.19035
0.22213 0.21778 0.20471
0.23772 0.23306 0.21907
0.25330 0.24834 0.23344
0.26889 0.26362 0.24780
0.28448 0.27890 0.26216
0.30006 0.29418 0.27653
0.31565 0.30946 0.29089
0.33123 0.32474 0.30526
0.34682 0.34002 0.31962
0.36241 0.35530 0.33398
0.37799 0.37058 0.34835
0.39358 0.38586 0.36271
0.40917 0.40114 0.37707
0.42475 0.41642 0.39144
0.44034 0.43170 0.40580
0.24339 0.23862 0.22430
0.25898 0.25390 0.23867
0.27456 0.26918 0.25303
0.29015 0.28446 0.26739
0.30574 0.29974 0.28176
0.32132 0.31502 0.29612
0.33691 0.33030 0.31048
0.35250 0.34558 0.32485
0.36808 0.36086 0.33921
0.38367 0.37615 0.35358
0.39925 0.39143 0.36794
0.41484 0.40671 0.38230
0.43043 0.42199 0.39667
0.44601 0.43727 0.41103
0.46160 0.45255 0.42540
0.47719 0.46783 0.43976
0.49277 0.48311 0.45412
0.29582 0.29002 0.27262
0.31141 0.30530 0.28699
0.32700 0.32059 0.30135
0.34258 0.33587 0.31571
0.35817 0.35115 0.33008
0.37376 0.36643 0.34444
0.38934 0.38171 0.35881
0.40493 0.39699 0.37317
0.42051 0.41227 0.38753
0.43610 0.42755 0.40190
0.45169 0.44283 0.41626
0.46727 0.45811 0.43062
0.48286 0.47339 0.44499
0.49845 0.48867 0.45935
0.51403 0.50395 0.47372
0.52962 0.51923 0.48808
0.54520 0.53451 0.50244
0.34826 0.34143 0.32094
0.36384 0.35671 0.33531
0.37943 0.37199 0.34967
0.39502 0.38727 0.36403
0.41060 0.40255 0.37840
0.42619 0.41783 0.39276
0.44178 0.43311 0.40713
0.45736 0.44839 0.42149
0.47295 0.46367 0.43585
0.48853 0.47895 0.45022
0.50412 0.49424 0.46458
0.51971 0.50952 0.47895
0.53529 0.52480 0.49331
0.55088 0.54008 0.50767
0.56647 0.55536 0.52204
0.58205 0.57064 0.53640
0.59764 0.58592 0.55076
0.40069 0.39283 0.36926
0.41628 0.40812 0.38363
0.43186 0.42340 0.39799
0.44745 0.43868 0.41236
0.46304 0.45396 0.42672
0.47862 0.46924 0.44108
0.49421 0.48452 0.45545
0.50979 0.49980 0.46981
0.52538 0.51508 0.48417
0.54097 0.53036 0.49854
0.55655 0.54564 0.51290
0.57214 0.56092 0.52727
0.58773 0.57620 0.54163
0.60331 0.59148 0.55599
0.61890 0.60676 0.57036
0.63448 0.62204 0.58472
0.65007 0.63732 0.59908
0.45312 0.44424 0.41759
0.46871 0.45952 0.43195
0.48430 0.47480 0.44631
0.49988 0.49008 0.46068
0.51547 0.50536 0.47504
0.53106 0.52064 0.48940
0.54664 0.53592 0.50377
0.56223 0.55120 0.51813
0.57781 0.56648 0.53250
0.59340 0.58177 0.54686
0.60899 0.59705 0.56122
0.62457 0.61233 0.57559
0.64016 0.62761 0.58995
0.65575 0.64289 0.60431
0.67133 0.65817 0.61868
0.68692 0.67345 0.63304
0.70250 0.68873 0.64741
0.50556 0.49564 0.46591
0.52114 0.51092 0.48027
0.53673 0.52621 0.49463
0.55232 0.54149 0.50900
0.56790 0.55677 0.52336
0.58349 0.57205 0.53772
0.59907 0.58733 0.55209
0.61466 0.60261 0.56645
0.63025 0.61789 0.58082
0.64583 0.63317 0.59518
0.66142 0.64845 0.60954
0.67701 0.66373 0.62391
0.69259 0.67901 0.63827
0.70818 0.69429 0.65263
0.72376 0.70957 0.66700
0.73935 0.72485 0.68136
0.75494 0.74013 0.69573
0.55799 0.54705 0.51423
0.57358 0.56233 0.52859
0.58916 0.57761 0.54295
0.60475 0.59289 0.55732
0.62034 0.60817 0.57168
0.63592 0.62345 0.58605
0.65151 0.63873 0.60041
0.66709 0.65401 0.61477
0.68268 0.66929 0.62914
0.69827 0.68457 0.64350
0.71385 0.69986 0.65786
0.72944 0.71514 0.67223
0.74503 0.73042 0.68659
0.76061 0.74570 0.70096
0.77620 0.76098 0.71532
0.79178 0.77626 0.72968
0.80737 0.79154 0.74405
0.61042 0.59845 0.56255
0.62601 0.61373 0.57691
0.64160 0.62902 0.59127
0.65718 0.64430 0.60564
0.67277 0.65958 0.62000
0.68835 0.67486 0.63437
0.70394 0.69014 0.64873
0.71953 0.70542 0.66309
0.73511 0.72070 0.67746
0.75070 0.73598 0.69182
0.76629 0.75126 0.70618
0.78187 0.76654 0.72055
0.79746 0.78182 0.73491
0.81304 0.79710 0.74928
0.82863 0.81238 0.76364
0.84422 0.82766 0.77800
0.85980 0.84294 0.79237
0.66286 0.64986 0.61087
0.67844 0.66514 0.62523
0.69403 0.68042 0.63960
0.70962 0.69570 0.65396
0.72520 0.71098 0.66832
0.74079 0.72626 0.68269
0.75637 0.74154 0.69705
0.77196 0.75682 0.71141
0.78755 0.77210 0.72578
0.80313 0.78738 0.74014
0.81872 0.80267 0.75451
0.83431 0.81795 0.76887
0.84989 0.83323 0.78323
0.86548 0.84851 0.79760
0.88106 0.86379 0.81196
0.89665 0.87907 0.82632
0.91224 0.89435 0.84069
0.71529 0.70126 0.65919
0.73088 0.71654 0.67355
0.74646 0.73183 0.68792
0.76205 0.74711 0.70228
0.77763 0.76239 0.71664
0.79322 0.77767 0.73101
0.80881 0.79295 0.74537
0.82439 0.80823 0.75974
0.83998 0.82351 0.77410
0.85557 0.83879 0.78846
0.87115 0.85407 0.80283
0.88674 0.86935 0.81719
0.90232 0.88463 0.83155
0.91791 0.89991 0.84592
0.93350 0.91519 0.86028
0.94908 0.93047 0.87465
0.96467 0.94575 0.88901
0.76772 0.75267 0.70751
0.78331 0.76795 0.72187
0.79890 0.78323 0.73624
0.81448 0.79851 0.75060
0.83007 0.81379 0.76496
0.84565 0.82907 0.77933
0.86124 0.84435 0.79369
0.87683 0.85963 0.80806
0.89241 0.87491 0.82242
0.90800 0.89020 0.83678
0.92359 0.90548 0.85115
0.93917 0.92076 0.86551
0.95476 0.93604 0.87987
0.97034 0.95132 0.89424
0.98593 0.96660 0.90860
1.00000 0.98188 0.92297
1.00000 0.99716 0.93733
0.00000 0.00000 0.00000
0.00000 0.00000 0.00000
0.00000 0.00000 0.00000
0.00000 0.00000 0.00000
0.00000 0.00000 0.00000
0.01202 0.01178 0.01107
0.02760 0.02706 0.02544
0.04319 0.04234 0.03980
0.05878 0.05762 0.05417
0.07436 0.07290 0.06853
0.08995 0.08819 0.08289
0.10553 0.10347 0.09726
0.12112 0.11875 0.11162
0.13671 0.13403 0.12599
0.15229 0.14931 0.14035
0.16788 0.16459 0.15471
0.18347 0.17987 0.16908
0.00000 0.00000 0.00000
0.00211 0.00206 0.00194
0.01769 0.01735 0.01630
0.03328 0.03263 0.03067
0.04886 0.04791 0.04503
0.06445 0.06319 0.05940
0.08004 0.07847 0.07376
0.09562 0.09375 0.08812
0.11121 0.10903 0.10249
0.12680 0.12431 0.11685
0.14238 0.13959 0.13121
0.15797 0.15487 0.14558
0.17355 0.17015 0.15994
0.18914 0.18543 0.17431
0.20473 0.20071 0.18867
0.22031 0.21599 0.20303
0.23590 0.23127 0.21740
0.03895 0.03819 0.03590
0.05454 0.05347 0.05026
0.07013 0.06875 0.06463
0.08571 0.08403 0.07899
0.10130 0.09931 0.09335
0.11688 0.11459 0.10772
0.13247 0.12987 0.12208
0.14806 0.14515 0.13644
0.16364 0.16043 0.15081
0.17923 0.17571 0.16517
0.19481 0.19100 0.17954
0.21040 0.20628 0.19390
0.22599 0.22156 0.20826
0.24157 0.23684 0.22263
0.25716 0.25212 0.23699
0.27275 0.26740 0.25135
0.28833 0.28268 0.26572
0.09139 0.08959 0.08422
0.10697 0.10487 0.09858
0.12256 0.12016 0.11295
0.13814 0.13544 0.12731
0.15373 0.15072 0.14167
0.16932 0.16600 0.15604
0.18490 0.18128 0.17040
0.20049 0.19656 0.18476
0.21608 0.21184 0.19913
0.23166 0.22712 0.21349
0.24725 0.24240 0.22786
0.26283 0.25768 0.24222
0.27842 0.27296 0.25658
0.29401 0.28824 0.27095
0.30959 0.30352 0.28531
0.32518 0.31880 0.29967
0.34077 0.33408 0.31404
0.14382 0.14100 0.13254
0.15940 0.15628 0.14690
0.17499 0.17156 0.16127
0.19058 0.18684 0.17563
0.20616 0.20212 0.18999
0.22175 0.21740 0.20436
0.23734 0.23268 0.21872
0.25292 0.24796 0.23309
0.26851 0.26324 0.24745
0.28409 0.27852 0.26181
0.29968 0.29381 0.27618
0.31527 0.30909 0.29054
0.33085 0.32437 0.30490
0.34644 0.33965 0.31927
0.36203 0.35493 0.33363
0.37761 0.37021 0.34800
0.39320 0.38549 0.36236
0.19625 0.19240 0.18086
0.21184 0.20768 0.19522
0.22742 0.22297 0.20959
0.24301 0.23825 0.22395
0.25860 0.25353 0.23831
0.27418 0.26881 0.25268
0.28977 0.28409 0.26704
0.30536 0.29937 0.28141
0.32094 0.31465 0.29577
0.33653 0.32993 0.31013
0.35211 0.34521 0.32450
0.36770 0.36049 0.33886
0.38329 0.37577 0.35322
0.39887 0.39105 0.36759
0.41446 0.40633 0.38195
0.43005 0.42161 0.39632
0.44563 0.43689 0.41068
0.24868 0.24381 0.22918
0.26427 0.25909 0.24354
0.27986 0.27437 0.25791
0.29544 0.28965 0.27227
0.31103 0.30493 0.28664
0.32662 0.32021 0.30100
0.34220 0.33549 0.31536
0.35779 0.35077 0.32973
0.37337 0.36605 0.34409
0.38896 0.38133 0.35845
0.40455 0.39662 0.37282
0.42013 0.41190 0.38718
0.43572 0.42718 0.40155
0.45131 0.44246 0.41591
0.46689 0.45774 0.43027
0.48248 0.47302 0.44464
0.49806 0.48830 0.45900
0.30112 0.29521 0.27750
0.31670 0.31049 0.29186
0.33229 0.32577 0.30623
0.34788 0.34106 0.32059
0.36346 0.35634 0.33496
0.37905 0.37162 0.34932
0.39464 0.38690 0.36368
0.41022 0.40218 0.37805
0.42581 0.41746 0.39241
0.44139 0.43274 0.40678
0.45698 0.44802 0.42114
0.47257 0.46330 0.43550
0.48815 0.47858 0.44987
0.50374 0.49386 0.46423
0.51933 0.50914 0.47859
0.53491 0.52442 0.49296
0.55050 0.53970 0.50732
0.35355 0.34662 0.32582
0.36914 0.36190 0.34019
0.38472 0.37718 0.35455
0.40031 0.39246 0.36891
0.41590 0.40774 0.38328
0.43148 0.42302 0.39764
0.44707 0.43830 0.41200
0.46265 0.45358 0.42637
0.47824 0.46886 0.44073
0.49383 0.48414 0.45510
0.50941 0.49943 0.46946
0.52500 0.51471 0.48382
0.54059 0.52999 0.49819
0.55617 0.54527 0.51255
0.57176 0.56055 0.52691
0.58734 0.57583 0.54128
0.60293 0.59111 0.55564
0.40598 0.39802 0.37414
0.42157 0.41330 0.38851
0.43716 0.42858 0.40287
0.45274 0.44387 0.41723
0.46833 0.45915 0.43160
0.48392 0.47443 0.44596
0.49950 0.48971 0.46033
0.51509 0.50499 0.47469
0.53067 0.52027 0.48905
0.54626 0.53555 0.50342
0.56185 0.55083 0.51778
0.57743 0.56611 0.53214
0.59302 0.58139 0.54651
0.60861 0.59667 0.56087
0.62419 0.61195 0.57524
0.63978 0.62723 0.58960
0.65536 0.64251 0.60396
0.45842 0.44943 0.42246
0.47400 0.46471 0.43683
0.48959 0.47999 0.45119
0.50518 0.49527 0.46555
0.52076 0.51055 0.47992
0.53635 0.52583 0.49428
0.55193 0.54111 0.50865
0.56752 0.55639 0.52301
0.58311 0.57167 0.53737
0.59869 0.58695 0.55174
0.61428 0.60223 0.56610
0.62987 0.61752 0.58046
0.64545 0.63280 0.59483
0.66104 0.64808 0.60919
0.67662 0.66336 0.62356
0.69221 0.67864 0.63792
0.70780 0.69392 0.65228
0.51085 0.50083 0.47078
0.52644 0.51611 0.48515
0.54202 0.53139 0.49951
0.55761 0.54668 0.51388
0.57320 0.56196 0.52824
0.58878 0.57724 0.54260
0.60437 0.59252 0.55697
0.61995 0.60780 0.57133
0.63554 0.62308 0.58569
0.65113 0.63836 0.60006
0.66671 0.65364 0.61442
0.68230 0.66892 0.62879
0.69789 0.68420 0.64315
0.71347 0.69948 0.65751
0.72906 0.71476 0.67188
0.74464 0.73004 0.68624
0.76023 0.74532 0.70060
0.56328 0.55224 0.51910
0.57887 0.56752 0.53347
0.59446 0.58280 0.54783
0.61004 0.59808 0.56220
0.62563 0.61336 0.57656
0.64121 0.62864 0.59092
0.65680 0.64392 0.60529
0.67239 0.65920 0.61965
0.68797 0.67448 0.63401
0.70356 0.68976 0.64838
0.71915 0.70505 0.66274
0.73473 0.72033 0.67711
0.75032 0.73561 0.69147
0.76590 0.75089 0.70583
0.78149 0.76617 0.72020
0.79708 0.78145 0.73456
0.81266 0.79673 0.74893
0.61572 0.60364 0.56743
0.63130 0.61892 0.58179
0.64689 0.63420 0.59615
0.66248 0.64949 0.61052
0.67806 0.66477 0.62488
0.69365 0.68005 0.63924
0.70923 0.69533 0.65361
0.72482 0.71061 0.66797
0.74041 0.72589 0.68234
0.75599 0.74117 0.69670
0.77158 0.75645 0.71106
0.78717 0.77173 0.72543
0.80275 0.78701 0.73979
0.81834 0.80229 0.75415
0.83392 0.81757 0.76852
0.84951 0.83285 0.78288
0.86510 0.84813 0.79725
0.66815 0.65505 0.61575
0.68374 0.67033 0.63011
0.69932 0.68561 0.64447
0.71491 0.70089 0.65884
0.73049 0.71617 0.67320
0.74608 0.73145 0.68756
0.76167 0.74673 0.70193
0.77725 0.76201 0.71629
0.79284 0.77729 0.73066
0.80843 0.79257 0.74502
0.82401 0.80785 0.75938
0.83960 0.82314 0.77375
0.85518 0.83842 0.78811
0.87077 0.85370 0.80248
0.88636 0.86898 0.81684
0.90194 0.88426 0.83120
0.91753 0.89954 0.84557
0.72058 0.70645 0.66407
0.73617 0.72173 0.67843
0.75176 0.73701 0.69279
0.76734 0.75230 0.70716
0.78293 0.76758 0.72152
0.79851 0.78286 0.73589
0.81410 0.79814 0.75025
0.82969 0.81342 0.76461
0.84527 0.82870 0.77898
0.86086 0.84398 0.79334
0.87645 0.85926 0.80770
0.89203 0.87454 0.82207
0.90762 0.88982 0.83643
0.92320 0.90510 0.85080
0.93879 0.92038 0.86516
0.95438 0.93566 0.87952
0.96996 0.95094 0.89389
0.77302 0.75786 0.71239
0.78860 0.77314 0.72675
0.80419 0.78842 0.74111
0.81977 0.80370 0.75548
0.83536 0.81898 0.76984
0.85095 0.83426 0.78421
0.86653 0.84954 0.79857
0.88212 0.86482 0.81293
0.89771 0.88010 0.82730
0.91329 0.89538 0.84166
0.92888 0.91066 0.85603
0.94446 0.92595 0.87039
0.96005 0.94123 0.88475
0.97564 0.95651 0.89912
0.99122 0.97179 0.91348
1.00000 0.98707 0.92784
1.00000 1.00000 0.94221
0.00000 0.00000 0.00000
0.00000 0.00000 0.00000
0.00000 0.00000 0.00000
0.00000 0.00000 0.00000
0.00172 0.00169 0.00159
0.01731 0.01697 0.01595
0.03290 0.03225 0.03032
0.04848 0.04753 0.04468
0.06407 0.06281 0.05904
0.07966 0.07809 0.07341
0.09524 0.09337 0.08777
0.11083 0.10866 0.10214
0.12641 0.12394 0.11650
0.14200 0.13922 0.13086
0.15759 0.15450 0.14523
0.17317 0.16978 0.15959
0.18876 0.18506 0.17395
0.00000 0.00000 0.00000
0.00740 0.00725 0.00682
0.02299 0.02253 0.02118
0.03857 0.03781 0.03555
0.05416 0.05310 0.04991
0.06974 0.06838 0.06427
0.08533 0.08366 0.07864
0.10092 0.09894 0.09300
0.11650 0.11422 0.10737
0.13209 0.12950 0.12173
0.14767 0.14478 0.13609
0.16326 0.16006 0.15046
0.17885 0.17534 0.16482
0.19443 0.19062 0.17918
0.21002 0.20590 0.19355
0.22561 0.22118 0.20791
