demos/c3-mood-piece/resources/look_mono.cube
TITLE "look_mono"
LUT_3D_SIZE 5
0.00000 0.00000 0.00000
0.00000 0.00000 0.00000
0.04819 0.04725 0.04441
0.11053 0.10837 0.10187
0.17288 0.16949 0.15932
0.13323 0.13062 0.12278
0.19558 0.19174 0.18024
0.25792 0.25287 0.23769
0.32027 0.31399 0.29515
0.38261 0.37511 0.35260
0.34296 0.33624 0.31607
0.40531 0.39736 0.37352
0.46765 0.45848 0.43098
0.53000 0.51961 0.48843
0.59234 0.58073 0.54589
0.55270 0.54186 0.50935
0.61504 0.60298 0.56680
0.67739 0.66411 0.62426
0.73973 0.72523 0.68171
0.80208 0.78635 0.73917
0.76243 0.74748 0.70263
0.82477 0.80860 0.76009
0.88712 0.86972 0.81754
0.94946 0.93085 0.87500
1.00000 0.99197 0.93245
0.00000 0.00000 0.00000
0.00702 0.00688 0.00647
0.06936 0.06800 0.06392
0.13171 0.12913 0.12138
0.19405 0.19025 0.17883
0.15441 0.15138 0.14229
0.21675 0.21250 0.19975
0.27909 0.27362 0.25721
0.34144 0.33475 0.31466
0.40378 0.39587 0.37212
0.36414 0.35700 0.33558
0.42648 0.41812 0.39303
0.48883 0.47924 0.45049
0.55117 0.54036 0.50794
0.61352 0.60149 0.56540
0.57387 0.56262 0.52886
0.63621 0.62374 0.58632
0.69856 0.68486 0.64377
0.76090 0.74598 0.70123
0.82325 0.80711 0.75868
0.78360 0.76824 0.72214
0.84595 0.82936 0.77960
0.90829 0.89048 0.83705
0.97064 0.95160 0.89451
1.00000 1.00000 0.95196
0.00000 0.00000 0.00000
0.02819 0.02764 0.02598
0.09054 0.08876 0.08343
0.15288 0.14988 0.14089
0.21523 0.21101 0.19834
0.17558 0.17213 0.16181
0.23792 0.23326 0.21926
0.30027 0.29438 0.27672
0.36261 0.35550 0.33417
0.42496 0.41663 0.39163
0.38531 0.37776 0.35509
0.44766 0.43888 0.41254
0.51000 0.50000 0.47000
0.57234 0.56112 0.52746
0.63469 0.62225 0.58491
0.59504 0.58337 0.54837
0.65739 0.64450 0.60583
0.71973 0.70562 0.66328
0.78208 0.76674 0.72074
0.84442 0.82787 0.77819
0.80477 0.78899 0.74166
0.86712 0.85012 0.79911
0.92946 0.91124 0.85657
0.99181 0.97236 0.91402
1.00000 1.00000 0.97148
0.00000 0.00000 0.00000
0.04936 0.04840 0.04549
0.11171 0.10952 0.10295
0.17405 0.17064 0.16040
0.23640 0.23176 0.21786
0.19675 0.19289 0.18132
0.25910 0.25402 0.23877
0.32144 0.31514 0.29623
0.38379 0.37626 0.35368
0.44613 0.43738 0.41114
0.40648 0.39851 0.37460
0.46883 0.45963 0.43206
0.53117 0.52076 0.48951
0.59352 0.58188 0.54697
0.65586 0.64300 0.60442
0.61622 0.60413 0.56788
0.67856 0.66526 0.62534
0.74091 0.72638 0.68279
0.80325 0.78750 0.74025
0.86559 0.84862 0.79771
0.82595 0.80975 0.76117
0.88829 0.87087 0.81862
0.95064 0.93200 0.87608
1.00000 0.99312 0.93353
1.00000 1.00000 0.99099
0.00819 0.00803 0.00755
0.07054 0.06915 0.06500
0.13288 0.13028 0.12246
0.19523 0.19140 0.17991
0.25757 0.25252 0.23737
0.21792 0.21365 0.20083
0.28027 0.27477 0.25829
0.34261 0.33590 0.31574
0.40496 0.39702 0.37320
0.46730 0.45814 0.43065
0.42766 0.41927 0.39411
0.49000 0.48039 0.45157
0.55235 0.54151 0.50902
0.61469 0.60264 0.56648
0.67704 0.66376 0.62393
0.63739 0.62489 0.58740
0.69973 0.68601 0.64485
0.76208 0.74714 0.70231
0.82442 0.80826 0.75976
0.88677 0.86938 0.81722
0.84712 0.83051 0.78068
0.90947 0.89163 0.83813
0.97181 0.95275 0.89559
1.00000 1.00000 0.95304
1.00000 1.00000 1.00000
